;FLAVOR:Marlin
;TIME:3297
;Filament used: 1.58313m
;Layer height: 0.09
;MINX:135.307
;MINY:26.145
;MINZ:0.23
;MAXX:179.357
;MAXY:73.813
;MAXZ:24.98
;Generated with Cura_SteamEngine 4.10.0
M82 ;absolute extrusion mode
G21 ; set units to millimeters
G90 ; use absolute positioning
M82 ; absolute extrusion mode
M104 S215.0 ; set extruder temp
M140 S60 ; set bed temp
M190 S60 ; wait for bed temp
M109 S215.0 ; wait for extruder temp
G28 W ; home all without mesh bed level
G80 ; mesh bed leveling
G92 E0.0 ; reset extruder distance position
G1 Y-3.0 F1000.0 ; go outside print area
G1 X60.0 E9.0 F1000.0 ; intro line
G1 X100.0 E21.5 F1000.0 ; intro line
G92 E0.0 ; reset extruder distance position
G92 E0
G92 E0
G1 F2100 E-0.8
;LAYER_COUNT:276
;LAYER:0
M107
G0 F3600 X135.719 Y34.553 Z0.23
;TYPE:SKIRT
G1 F2100 E0
G1 F1800 X136.009 Y33.643 E0.03653
G1 X136.374 Y32.761 E0.07304
G1 X136.811 Y31.912 E0.10956
G1 X137.318 Y31.103 E0.14608
G1 X137.89 Y30.339 E0.18259
G1 X138.525 Y29.626 E0.21911
G1 X139.217 Y28.968 E0.25563
G1 X139.962 Y28.371 E0.29215
G1 X140.754 Y27.838 E0.32866
G1 X141.588 Y27.373 E0.36518
G1 X142.458 Y26.979 E0.40171
G1 X143.358 Y26.66 E0.43824
G1 X144.281 Y26.417 E0.47474
G1 X145.222 Y26.253 E0.51128
G1 X146.397 Y26.159 E0.55637
G1 X147.037 Y26.145 E0.58085
G1 X167.25 Y26.145 E1.35398
G1 X168.111 Y26.156 E1.38692
G1 X169.065 Y26.21 E1.42346
G1 X170.01 Y26.343 E1.45997
G1 X170.941 Y26.555 E1.49649
G1 X171.851 Y26.844 E1.53301
G1 X172.734 Y27.208 E1.56954
G1 X173.583 Y27.645 E1.60606
G1 X174.392 Y28.151 E1.64256
G1 X175.156 Y28.723 E1.67906
G1 X175.87 Y29.357 E1.71559
G1 X176.528 Y30.049 E1.75211
G1 X177.126 Y30.793 E1.78862
G1 X177.66 Y31.585 E1.82516
G1 X178.125 Y32.419 E1.86168
G1 X178.52 Y33.288 E1.89819
G1 X178.839 Y34.188 E1.93471
G1 X179.083 Y35.111 E1.97123
G1 X179.248 Y36.052 E2.00777
G1 X179.343 Y37.235 E2.05317
G1 X179.357 Y37.875 E2.07765
G1 X179.356 Y52.143 E2.62339
G1 X179.345 Y52.871 E2.65124
G1 X179.318 Y53.491 E2.67498
G1 X179.258 Y54.338 E2.70745
G1 X179.218 Y54.801 E2.72523
G1 X179.148 Y55.514 E2.75263
G1 X178.954 Y56.77 E2.80124
G1 X178.831 Y57.32 E2.8228
G1 X178.645 Y58.079 E2.85269
G1 X178.587 Y58.307 E2.86169
G1 X178.395 Y59.026 E2.89015
G1 X178.033 Y60.147 E2.93521
G1 X177.835 Y60.645 E2.95571
G1 X177.621 Y61.15 E2.97669
G1 X177.391 Y61.678 E2.99872
G1 X177.102 Y62.324 E3.02579
G1 X176.465 Y63.545 E3.07846
G1 X176.062 Y64.197 E3.10778
G1 X175.684 Y64.784 E3.13448
G1 X175.26 Y65.424 E3.16385
G1 X174.499 Y66.444 E3.21252
G1 X173.932 Y67.097 E3.2456
G1 X173.507 Y67.567 E3.26984
G1 X172.939 Y68.178 E3.30175
G1 X172.037 Y69.046 E3.34963
G1 X171.335 Y69.628 E3.38451
G1 X170.923 Y69.957 E3.40467
G1 X170.218 Y70.503 E3.43878
G1 X169.173 Y71.222 E3.4873
G1 X168.741 Y71.48 E3.50654
G1 X168.368 Y71.692 E3.52295
G1 X167.759 Y72.032 E3.54963
G1 X167.192 Y72.339 E3.57429
G1 X166.334 Y72.758 E3.61082
G1 X165.444 Y73.104 E3.64734
G1 X164.961 Y73.256 E3.66671
G1 X164.807 Y73.301 E3.67284
G1 X163.996 Y73.507 E3.70485
G1 X163.739 Y73.562 E3.7149
G1 X162.797 Y73.722 E3.75145
G1 X161.846 Y73.803 E3.78796
G1 X160.943 Y73.806 E3.8225
G1 X158.259 Y73.74 E3.92519
G1 X155.762 Y73.748 E4.0207
G1 X153.62 Y73.811 E4.10266
G1 X153.494 Y73.813 E4.10748
G1 X152.539 Y73.788 E4.14402
G1 X151.59 Y73.683 E4.18054
G1 X150.921 Y73.56 E4.20656
G1 X150.674 Y73.507 E4.21622
G1 X150.183 Y73.39 E4.23553
G1 X150.03 Y73.35 E4.24158
G1 X149.117 Y73.07 E4.2781
G1 X148.231 Y72.715 E4.31461
G1 X147.48 Y72.343 E4.34667
G1 X146.741 Y71.941 E4.37884
G1 X146.308 Y71.697 E4.39785
G1 X145.674 Y71.329 E4.42589
G1 X144.645 Y70.656 E4.47292
G1 X143.95 Y70.124 E4.5064
G1 X143.375 Y69.665 E4.53454
G1 X142.82 Y69.209 E4.56202
G1 X141.908 Y68.373 E4.60934
G1 X141.29 Y67.716 E4.64384
G1 X140.854 Y67.232 E4.66875
G1 X140.314 Y66.616 E4.70009
G1 X139.515 Y65.591 E4.7498
G1 X139.1 Y64.973 E4.77827
G1 X138.712 Y64.369 E4.80573
G1 X138.293 Y63.698 E4.83599
G1 X137.702 Y62.628 E4.88274
G1 X137.471 Y62.135 E4.90356
G1 X137.247 Y61.627 E4.9248
G1 X137.02 Y61.096 E4.94689
G1 X136.747 Y60.44 E4.97407
G1 X136.308 Y59.181 E5.02507
G1 X136.1 Y58.407 E5.05572
G1 X135.944 Y57.785 E5.08025
G1 X135.756 Y56.983 E5.11176
G1 X135.538 Y55.742 E5.15995
G1 X135.482 Y55.232 E5.17957
G1 X135.446 Y54.833 E5.1949
G1 X135.389 Y54.119 E5.22229
G1 X135.343 Y53.436 E5.24848
G1 X135.314 Y52.706 E5.27642
G1 X135.307 Y52.071 E5.30071
G1 X135.308 Y38.048 E5.83708
G1 X135.318 Y37.383 E5.86252
G1 X135.373 Y36.429 E5.89907
G1 X135.507 Y35.484 E5.93558
G1 X135.719 Y34.553 E5.9721
G0 F3600 X136.118 Y34.61
G1 F1800 X136.407 Y33.718 E6.00796
G1 X136.772 Y32.854 E6.04384
G1 X137.208 Y32.024 E6.0797
G1 X137.714 Y31.234 E6.11558
G1 X138.285 Y30.49 E6.15145
G1 X138.917 Y29.797 E6.18733
G1 X139.606 Y29.161 E6.22319
G1 X140.347 Y28.586 E6.25907
G1 X141.134 Y28.076 E6.29494
G1 X141.962 Y27.635 E6.33082
G1 X142.824 Y27.266 E6.36668
G1 X143.715 Y26.972 E6.40257
G1 X144.627 Y26.754 E6.43844
G1 X145.554 Y26.616 E6.47428
G1 X146.408 Y26.558 E6.50702
G1 X147.037 Y26.545 E6.53109
G1 X167.408 Y26.546 E7.31026
G1 X168.106 Y26.556 E7.33696
G1 X169.042 Y26.61 E7.37282
G1 X169.97 Y26.742 E7.40868
G1 X170.884 Y26.954 E7.44456
G1 X171.776 Y27.243 E7.48043
G1 X172.641 Y27.606 E7.51631
G1 X173.471 Y28.042 E7.55217
G1 X174.262 Y28.547 E7.58806
G1 X175.006 Y29.118 E7.62394
G1 X175.699 Y29.75 E7.65981
G1 X176.336 Y30.438 E7.69567
G1 X176.911 Y31.179 E7.73155
G1 X177.422 Y31.965 E7.76741
G1 X177.864 Y32.793 E7.80331
G1 X178.233 Y33.655 E7.83917
G1 X178.528 Y34.545 E7.87504
G1 X178.746 Y35.457 E7.9109
G1 X178.886 Y36.385 E7.9468
G1 X178.944 Y37.246 E7.97981
G1 X178.957 Y37.875 E8.00387
G1 X178.956 Y52.137 E8.54938
G1 X178.945 Y52.865 E8.57723
G1 X178.919 Y53.463 E8.60012
G1 X178.86 Y54.305 E8.63241
G1 X178.82 Y54.762 E8.64995
G1 X178.75 Y55.475 E8.67736
G1 X178.563 Y56.687 E8.72426
G1 X178.443 Y57.225 E8.74535
G1 X178.257 Y57.984 E8.77524
G1 X178.201 Y58.204 E8.78392
G1 X178.009 Y58.923 E8.81238
G1 X177.659 Y60.005 E8.85588
G1 X177.467 Y60.489 E8.8758
G1 X177.254 Y60.991 E8.89666
G1 X177.026 Y61.515 E8.91851
G1 X176.737 Y62.161 E8.94558
G1 X176.122 Y63.339 E8.99641
G1 X175.723 Y63.985 E9.02545
G1 X175.43 Y64.442 E9.04622
G1 X174.926 Y65.203 E9.08113
G1 X174.192 Y66.187 E9.12808
G1 X173.632 Y66.832 E9.16076
G1 X173.211 Y67.298 E9.18478
G1 X172.647 Y67.905 E9.21647
G1 X171.776 Y68.742 E9.26267
G1 X171.082 Y69.317 E9.29714
G1 X170.674 Y69.644 E9.31714
G1 X169.974 Y70.186 E9.35101
G1 X168.965 Y70.88 E9.39785
G1 X168.264 Y71.292 E9.42895
G1 X167.568 Y71.68 E9.45943
G1 X167.001 Y71.987 E9.48409
G1 X166.158 Y72.398 E9.51996
G1 X164.849 Y72.872 E9.57321
G1 X164.695 Y72.917 E9.57935
G1 X163.912 Y73.115 E9.61024
G1 X163.655 Y73.17 E9.62029
G1 X162.73 Y73.327 E9.65618
G1 X161.796 Y73.405 E9.69203
G1 X160.924 Y73.406 E9.72538
G1 X158.267 Y73.34 E9.82704
G1 X155.749 Y73.348 E9.92335
G1 X153.614 Y73.411 E10.00505
G1 X153.488 Y73.413 E10.00987
G1 X152.55 Y73.388 E10.04576
G1 X151.618 Y73.283 E10.08163
G1 X151.005 Y73.169 E10.10548
G1 X150.284 Y73.003 E10.13378
G1 X150.131 Y72.963 E10.13983
G1 X149.234 Y72.688 E10.17572
G1 X148.365 Y72.337 E10.21156
G1 X147.67 Y71.991 E10.24126
G1 X146.937 Y71.592 E10.27318
G1 X146.509 Y71.352 E10.29195
G1 X145.875 Y70.984 E10.31999
G1 X144.882 Y70.333 E10.3654
G1 X144.196 Y69.809 E10.39842
G1 X143.629 Y69.356 E10.42618
G1 X143.074 Y68.9 E10.45365
G1 X142.194 Y68.093 E10.49932
G1 X141.584 Y67.445 E10.53336
G1 X141.056 Y66.857 E10.56359
G1 X140.615 Y66.353 E10.58921
G1 X139.845 Y65.364 E10.63715
G1 X139.435 Y64.754 E10.66526
G1 X138.975 Y64.037 E10.69784
G1 X138.632 Y63.487 E10.72264
G1 X138.063 Y62.454 E10.76775
G1 X137.837 Y61.973 E10.78807
G1 X137.614 Y61.469 E10.80915
G1 X137.389 Y60.942 E10.83107
G1 X137.116 Y60.286 E10.85825
G1 X136.692 Y59.072 E10.90743
G1 X136.487 Y58.306 E10.93776
G1 X136.333 Y57.689 E10.96209
G1 X136.146 Y56.892 E10.9934
G1 X135.935 Y55.695 E11.03989
G1 X135.88 Y55.196 E11.05909
G1 X135.845 Y54.8 E11.0743
G1 X135.788 Y54.092 E11.10147
G1 X135.742 Y53.409 E11.12765
G1 X135.714 Y52.701 E11.15475
G1 X135.707 Y52.071 E11.17885
G1 X135.708 Y38.054 E11.71499
G1 X135.718 Y37.389 E11.74043
G1 X135.772 Y36.452 E11.77632
G1 X135.906 Y35.524 E11.81219
G1 X136.118 Y34.61 E11.84808
G0 F3600 X136.517 Y34.669
G1 F1800 X136.806 Y33.794 E11.88332
G1 X137.17 Y32.949 E11.91851
G1 X137.605 Y32.138 E11.95371
G1 X138.11 Y31.367 E11.98897
G1 X138.679 Y30.644 E12.02416
G1 X139.309 Y29.972 E12.05939
G1 X139.995 Y29.358 E12.09461
G1 X140.731 Y28.806 E12.12979
G1 X141.513 Y28.319 E12.16503
G1 X142.334 Y27.903 E12.20023
G1 X143.188 Y27.559 E12.23545
G1 X144.068 Y27.29 E12.27065
G1 X144.969 Y27.099 E12.30588
G1 X145.883 Y26.987 E12.3411
G1 X146.419 Y26.958 E12.36163
G1 X147.037 Y26.945 E12.38527
G1 X167.25 Y26.945 E13.1584
G1 X168.1 Y26.956 E13.19092
G1 X169.019 Y27.009 E13.22613
G1 X169.93 Y27.142 E13.26134
G1 X170.826 Y27.353 E13.29655
G1 X171.7 Y27.641 E13.33175
G1 X172.547 Y28.004 E13.36699
G1 X173.358 Y28.439 E13.40219
G1 X174.128 Y28.943 E13.43739
G1 X174.852 Y29.512 E13.47261
G1 X175.524 Y30.142 E13.50785
G1 X176.139 Y30.827 E13.54306
G1 X176.692 Y31.563 E13.57827
G1 X177.179 Y32.344 E13.61347
G1 X177.596 Y33.165 E13.6487
G1 X177.941 Y34.019 E13.68393
G1 X178.21 Y34.899 E13.71912
G1 X178.402 Y35.8 E13.75436
G1 X178.515 Y36.713 E13.78955
G1 X178.544 Y37.257 E13.81038
G1 X178.557 Y37.875 E13.83403
G1 X178.556 Y52.131 E14.37931
G1 X178.545 Y52.859 E14.40716
G1 X178.52 Y53.436 E14.42925
G1 X178.461 Y54.271 E14.46126
G1 X178.422 Y54.723 E14.47862
G1 X178.352 Y55.436 E14.50602
G1 X178.171 Y56.604 E14.55123
G1 X178.054 Y57.13 E14.57184
G1 X177.868 Y57.889 E14.60173
G1 X177.814 Y58.101 E14.6101
G1 X177.622 Y58.82 E14.63856
G1 X177.285 Y59.862 E14.68045
G1 X177.098 Y60.333 E14.69983
G1 X176.887 Y60.832 E14.72055
G1 X176.661 Y61.352 E14.74224
G1 X176.372 Y61.998 E14.76931
G1 X175.779 Y63.133 E14.81829
G1 X175.384 Y63.772 E14.84703
G1 X175.017 Y64.342 E14.87296
G1 X174.593 Y64.982 E14.90232
G1 X173.886 Y65.93 E14.94755
G1 X173.332 Y66.567 E14.97984
G1 X172.914 Y67.03 E15.0037
G1 X172.354 Y67.632 E15.03515
G1 X171.515 Y68.439 E15.07968
G1 X170.83 Y69.007 E15.11371
G1 X170.297 Y69.431 E15.13976
G1 X169.729 Y69.87 E15.16722
G1 X168.757 Y70.539 E15.21236
G1 X168.066 Y70.944 E15.24299
G1 X167.378 Y71.328 E15.27313
G1 X166.811 Y71.635 E15.29779
G1 X165.983 Y72.038 E15.33301
G1 X164.737 Y72.489 E15.3837
G1 X164.583 Y72.534 E15.38983
G1 X163.828 Y72.724 E15.41961
G1 X163.571 Y72.779 E15.42966
G1 X162.663 Y72.933 E15.46489
G1 X161.746 Y73.007 E15.50008
G1 X160.939 Y73.006 E15.53095
G1 X158.276 Y72.939 E15.63284
G1 X155.735 Y72.948 E15.73003
G1 X153.607 Y73.011 E15.81146
G1 X153.481 Y73.013 E15.81628
G1 X152.561 Y72.987 E15.85148
G1 X151.646 Y72.882 E15.88671
G1 X151.089 Y72.778 E15.90838
G1 X150.385 Y72.616 E15.93601
G1 X150.232 Y72.576 E15.94206
G1 X149.352 Y72.305 E15.97728
G1 X148.499 Y71.958 E16.0125
G1 X147.861 Y71.64 E16.03977
G1 X147.132 Y71.243 E16.07152
G1 X146.71 Y71.006 E16.09003
G1 X146.076 Y70.638 E16.11807
G1 X145.119 Y70.011 E16.16183
G1 X144.443 Y69.494 E16.19438
G1 X143.883 Y69.047 E16.22179
G1 X143.328 Y68.591 E16.24926
G1 X142.48 Y67.814 E16.29326
G1 X141.878 Y67.174 E16.32686
G1 X141.357 Y66.593 E16.35671
G1 X140.916 Y66.089 E16.38233
G1 X140.174 Y65.137 E16.4285
G1 X139.769 Y64.534 E16.45628
G1 X139.315 Y63.825 E16.48848
G1 X138.972 Y63.275 E16.51327
G1 X138.423 Y62.28 E16.55674
G1 X138.202 Y61.811 E16.57657
G1 X137.982 Y61.312 E16.59743
G1 X137.759 Y60.789 E16.61918
G1 X137.486 Y60.133 E16.64635
G1 X137.077 Y58.962 E16.6938
G1 X136.874 Y58.205 E16.72378
G1 X136.685 Y57.444 E16.75377
G1 X136.535 Y56.801 E16.77902
G1 X136.332 Y55.647 E16.82384
G1 X136.252 Y54.863 E16.85398
G1 X136.198 Y54.217 E16.87878
G1 X136.141 Y53.382 E16.91079
G1 X136.114 Y52.696 E16.93705
G1 X136.107 Y52.071 E16.96096
G1 X136.108 Y38.06 E17.49686
G1 X136.118 Y37.395 E17.5223
G1 X136.172 Y36.476 E17.55751
G1 X136.305 Y35.565 E17.59273
G1 X136.517 Y34.669 E17.62795
G0 F3600 X136.916 Y34.728
G1 F1800 X137.205 Y33.872 E17.6625
G1 X137.568 Y33.045 E17.69705
G1 X138.002 Y32.254 E17.73156
G1 X138.505 Y31.503 E17.76613
G1 X139.073 Y30.801 E17.80067
G1 X139.7 Y30.151 E17.83521
G1 X140.382 Y29.559 E17.86976
G1 X141.114 Y29.03 E17.9043
G1 X141.89 Y28.568 E17.93885
G1 X142.704 Y28.177 E17.97339
G1 X143.549 Y27.858 E18.00793
G1 X144.419 Y27.616 E18.04247
G1 X145.307 Y27.452 E18.07701
G1 X146.43 Y27.358 E18.12012
G1 X147.037 Y27.345 E18.14334
G1 X167.25 Y27.345 E18.91647
G1 X168.094 Y27.356 E18.94875
G1 X168.996 Y27.409 E18.98331
G1 X169.889 Y27.541 E19.01784
G1 X170.767 Y27.752 E19.05238
G1 X171.623 Y28.04 E19.08693
G1 X172.45 Y28.402 E19.12146
G1 X173.242 Y28.837 E19.15602
G1 X173.993 Y29.339 E19.19057
G1 X174.696 Y29.906 E19.22511
G1 X175.346 Y30.533 E19.25966
G1 X175.938 Y31.215 E19.2942
G1 X176.468 Y31.946 E19.32874
G1 X176.93 Y32.722 E19.36328
G1 X177.323 Y33.535 E19.39782
G1 X177.641 Y34.38 E19.43235
G1 X177.884 Y35.25 E19.4669
G1 X178.049 Y36.138 E19.50145
G1 X178.144 Y37.268 E19.54482
G1 X178.157 Y37.875 E19.56805
G1 X178.156 Y52.125 E20.1131
G1 X178.145 Y52.853 E20.14095
G1 X178.121 Y53.408 E20.16219
G1 X178.063 Y54.238 E20.19402
G1 X178.024 Y54.684 E20.21114
G1 X177.954 Y55.397 E20.23854
G1 X177.78 Y56.521 E20.28205
G1 X177.666 Y57.035 E20.30219
G1 X177.48 Y57.794 E20.33208
G1 X177.428 Y57.998 E20.34013
G1 X177.236 Y58.717 E20.36859
G1 X176.911 Y59.72 E20.40892
G1 X176.554 Y60.593 E20.445
G1 X176.296 Y61.188 E20.4698
G1 X176.007 Y61.834 E20.49687
G1 X175.437 Y62.927 E20.54402
G1 X175.045 Y63.56 E20.5725
G1 X174.757 Y64.009 E20.5929
G1 X174.259 Y64.761 E20.6274
G1 X173.579 Y65.674 E20.67094
G1 X173.033 Y66.303 E20.7028
G1 X172.526 Y66.861 E20.73164
G1 X172.061 Y67.36 E20.75773
G1 X171.254 Y68.136 E20.80055
G1 X170.577 Y68.697 E20.83418
G1 X170.053 Y69.114 E20.8598
G1 X169.485 Y69.553 E20.88725
G1 X168.549 Y70.197 E20.93071
G1 X167.867 Y70.597 E20.96095
G1 X167.188 Y70.977 E20.99071
G1 X166.621 Y71.284 E21.01538
G1 X165.808 Y71.678 E21.04993
G1 X164.625 Y72.105 E21.09804
G1 X164.471 Y72.15 E21.10417
G1 X163.745 Y72.333 E21.13281
G1 X163.488 Y72.388 E21.14286
G1 X162.597 Y72.538 E21.17742
G1 X161.697 Y72.608 E21.21195
G1 X160.924 Y72.605 E21.24152
G1 X158.285 Y72.539 E21.34249
G1 X155.722 Y72.548 E21.44052
G1 X153.601 Y72.611 E21.52169
G1 X153.475 Y72.613 E21.52651
G1 X152.572 Y72.587 E21.56106
G1 X151.675 Y72.482 E21.5956
G1 X151.173 Y72.387 E21.61514
G1 X150.486 Y72.229 E21.64211
G1 X150.333 Y72.189 E21.64816
G1 X149.47 Y71.922 E21.68271
G1 X148.634 Y71.58 E21.71726
G1 X148.052 Y71.288 E21.74216
G1 X147.327 Y70.894 E21.77372
G1 X146.911 Y70.66 E21.79198
G1 X146.277 Y70.292 E21.82002
G1 X145.356 Y69.689 E21.86213
G1 X144.689 Y69.178 E21.89426
G1 X144.137 Y68.738 E21.92127
G1 X143.582 Y68.282 E21.94874
G1 X142.766 Y67.534 E21.99108
G1 X142.172 Y66.903 E22.02423
G1 X141.746 Y66.43 E22.04857
G1 X141.217 Y65.826 E22.07929
G1 X140.503 Y64.909 E22.12374
G1 X140.103 Y64.314 E22.15116
G1 X139.722 Y63.721 E22.17812
G1 X139.311 Y63.063 E22.20779
G1 X138.783 Y62.106 E22.2496
G1 X138.568 Y61.648 E22.26895
G1 X138.35 Y61.154 E22.28961
G1 X138.128 Y60.635 E22.3112
G1 X137.855 Y59.979 E22.33837
G1 X137.462 Y58.853 E22.38399
G1 X137.261 Y58.105 E22.41362
G1 X137.109 Y57.496 E22.43762
G1 X136.925 Y56.71 E22.4685
G1 X136.73 Y55.6 E22.51161
G1 X136.65 Y54.826 E22.54137
G1 X136.586 Y54.038 E22.57161
G1 X136.54 Y53.355 E22.59779
G1 X136.514 Y52.691 E22.62321
G1 X136.507 Y52.071 E22.64693
G1 X136.508 Y38.066 E23.18261
G1 X136.518 Y37.401 E23.20804
G1 X136.572 Y36.499 E23.24261
G1 X136.705 Y35.606 E23.27714
G1 X136.916 Y34.728 E23.31168
G1 F2100 E22.51168
;MESH:e291116a-8eaa-4fe1-a98c-bb53715c9930.stl
G0 F3600 X146.042 Y38.159
G0 X147.321 Y38.159
G0 X149.108 Y53.525
G0 X149.434 Y55.118
G0 X150.066 Y56.617
G0 X150.888 Y57.827
G0 X152.101 Y59.149
G0 X152.163 Y59.072
;TYPE:WALL-INNER
G1 F2100 E23.31168
G1 F1800 X153.443 Y59.913 E23.37026
G1 X153.625 Y60.055 E23.37909
G1 X153.695 Y60.172 E23.3843
G1 X153.732 Y60.367 E23.3919
G1 X153.731 Y61.369 E23.43022
G1 X153.689 Y61.574 E23.43823
G1 X153.597 Y61.707 E23.44441
