;FLAVOR:Marlin
;TIME:8224
;Filament used: 5.96226m
;Layer height: 0.15
;MINX:49.046
;MINY:36.936
;MINZ:0.25
;MAXX:117.827
;MAXY:92.184
;MAXZ:20.05
;Generated with Cura_SteamEngine 4.10.0
M82 ;absolute extrusion mode
G21 ; set units to millimeters
G90 ; use absolute positioning
M82 ; absolute extrusion mode
M104 S200 ; set extruder temp
M140 S60 ; set bed temp
M190 S60 ; wait for bed temp
M109 S200 ; wait for extruder temp
G28 W ; home all without mesh bed level
G80 ; mesh bed leveling
G92 E0.0 ; reset extruder distance position
G1 Y-3.0 F1000.0 ; go outside print area
G1 X60.0 E9.0 F1000.0 ; intro line
G1 X100.0 E21.5 F1000.0 ; intro line
G92 E0.0 ; reset extruder distance position
G92 E0
G92 E0
G1 F2100 E-0.8
;LAYER_COUNT:133
;LAYER:0
M107
G0 F1200 X51.185 Y40.133 Z0.25
;TYPE:SKIRT
G1 F2100 E0
G1 F600 X51.64 Y39.661 E0.02726
G1 X52.149 Y39.165 E0.0568
G1 X52.609 Y38.781 E0.08172
G1 X52.788 Y38.659 E0.09072
G1 X53.31 Y38.322 E0.11655
G1 X53.812 Y38.018 E0.14095
G1 X54.317 Y37.76 E0.16453
G1 X55.022 Y37.495 E0.19584
G1 X55.122 Y37.46 E0.20025
G1 X55.676 Y37.276 E0.22452
G1 X56.2 Y37.141 E0.24701
G1 X56.969 Y37.034 E0.27929
G1 X57.651 Y36.966 E0.30779
G1 X57.987 Y36.946 E0.32178
G1 X58.661 Y36.936 E0.34981
G1 X61.525 Y36.936 E0.46888
G1 X63.256 Y36.971 E0.54086
G1 X63.832 Y37.013 E0.56487
G1 X64.373 Y37.094 E0.58761
G1 X65.254 Y37.263 E0.62491
G1 X67.987 Y37.748 E0.74031
G1 X70.675 Y38.147 E0.85329
G1 X73.361 Y38.469 E0.96576
G1 X76.09 Y38.717 E1.07969
G1 X78.762 Y38.884 E1.19099
G1 X81.502 Y38.978 E1.30497
G1 X84.211 Y38.995 E1.4176
G1 X86.914 Y38.934 E1.53001
G1 X89.625 Y38.796 E1.64287
G1 X92.362 Y38.58 E1.75701
G1 X95.048 Y38.291 E1.86933
G1 X97.695 Y37.93 E1.98039
G1 X101.293 Y37.32 E2.13212
G1 X102.457 Y37.102 E2.18135
G1 X103.281 Y36.987 E2.21594
G1 X103.541 Y36.974 E2.22676
G1 X105.396 Y36.936 E2.3039
G1 X108.213 Y36.937 E2.42102
G1 X108.888 Y36.947 E2.44909
G1 X109.223 Y36.966 E2.46304
G1 X109.809 Y37.024 E2.48752
G1 X110.454 Y37.106 E2.51455
G1 X111.199 Y37.275 E2.54631
G1 X111.725 Y37.449 E2.56934
G1 X111.869 Y37.5 E2.5757
G1 X112.407 Y37.701 E2.59957
G1 X112.889 Y37.919 E2.62157
G1 X113.525 Y38.298 E2.65235
G1 X113.612 Y38.352 E2.6566
G1 X114.117 Y38.68 E2.68164
G1 X114.631 Y39.078 E2.70867
G1 X115.093 Y39.521 E2.73528
G1 X115.17 Y39.597 E2.73978
G1 X115.595 Y40.034 E2.76512
G1 X116.079 Y40.641 E2.7974
G1 X116.441 Y41.2 E2.82508
G1 X116.756 Y41.721 E2.8504
G1 X117.014 Y42.225 E2.87394
G1 X117.095 Y42.437 E2.88337
G1 X117.307 Y43.024 E2.90932
G1 X117.487 Y43.564 E2.93298
G1 X117.642 Y44.199 E2.96016
G1 X117.728 Y44.846 E2.98729
G1 X117.797 Y45.541 E3.01633
G1 X117.819 Y45.931 E3.03257
G1 X117.827 Y46.559 E3.05868
G1 X117.827 Y47.681 E3.10533
G1 X117.816 Y48.39 E3.13481
G1 X117.747 Y49.125 E3.1655
G1 X117.621 Y49.843 E3.19581
G1 X117.551 Y50.123 E3.20781
G1 X116.972 Y52.334 E3.30283
G1 X116.36 Y54.976 E3.41558
G1 X115.816 Y57.659 E3.5294
G1 X115.364 Y60.296 E3.64063
G1 X114.98 Y62.973 E3.75307
G1 X114.666 Y65.701 E3.86723
G1 X114.434 Y68.397 E3.97973
G1 X114.276 Y71.105 E4.09251
G1 X114.197 Y73.812 E4.2051
G1 X114.185 Y75.327 E4.26809
G1 X114.185 Y77.554 E4.36068
G1 X114.175 Y78.231 E4.38883
G1 X114.165 Y78.455 E4.39815
G1 X114.105 Y79.295 E4.43316
G1 X114.072 Y79.662 E4.44848
G1 X114.008 Y80.29 E4.47473
G1 X113.909 Y80.856 E4.49861
G1 X113.669 Y81.813 E4.53963
G1 X113.427 Y82.674 E4.57682
G1 X113.229 Y83.22 E4.60096
G1 X112.886 Y83.985 E4.63582
G1 X112.74 Y84.299 E4.65022
G1 X112.457 Y84.886 E4.67731
G1 X112.167 Y85.39 E4.70148
G1 X111.594 Y86.235 E4.74393
G1 X111.1 Y86.922 E4.77911
G1 X110.725 Y87.37 E4.8034
G1 X110.109 Y88.006 E4.84021
G1 X109.421 Y88.68 E4.88025
G1 X108.971 Y89.059 E4.90471
G1 X108.244 Y89.585 E4.94202
G1 X108.001 Y89.756 E4.95437
G1 X107.449 Y90.131 E4.98212
G1 X106.953 Y90.418 E5.00594
G1 X106.148 Y90.809 E5.04315
G1 X105.886 Y90.931 E5.05517
G1 X105.271 Y91.208 E5.08321
G1 X104.727 Y91.407 E5.10729
G1 X103.842 Y91.659 E5.14555
G1 X103.604 Y91.722 E5.15578
G1 X102.934 Y91.892 E5.18452
G1 X102.357 Y91.994 E5.20888
G1 X101.221 Y92.109 E5.25635
G1 X100.489 Y92.162 E5.28687
G1 X100.263 Y92.172 E5.29627
G1 X99.503 Y92.184 E5.32787
G1 X97.374 Y92.184 E5.41639
G1 X95.634 Y92.178 E5.48873
G1 X94.791 Y92.184 E5.52377
G1 X72.158 Y92.184 E6.46475
G1 X70.438 Y92.178 E6.53626
G1 X69.562 Y92.184 E6.57268
G1 X67.291 Y92.183 E6.66709
G1 X66.653 Y92.174 E6.69362
G1 X66.421 Y92.164 E6.70328
G1 X65.572 Y92.102 E6.73867
G1 X65.238 Y92.072 E6.75261
G1 X64.57 Y92.004 E6.78052
G1 X64.003 Y91.905 E6.80445
G1 X63.122 Y91.684 E6.84222
G1 X62.812 Y91.6 E6.85557
G1 X62.216 Y91.432 E6.88131
G1 X61.668 Y91.233 E6.90555
G1 X60.823 Y90.855 E6.94404
G1 X60.569 Y90.736 E6.9557
G1 X59.982 Y90.453 E6.98279
G1 X59.476 Y90.162 E7.00706
G1 X58.718 Y89.648 E7.04514
G1 X58.457 Y89.465 E7.05839
G1 X57.938 Y89.09 E7.08501
G1 X57.499 Y88.722 E7.10883
G1 X56.91 Y88.152 E7.1429
G1 X56.671 Y87.913 E7.15696
G1 X56.186 Y87.414 E7.18589
G1 X55.817 Y86.975 E7.20973
G1 X55.263 Y86.212 E7.24893
G1 X55.114 Y85.999 E7.25974
G1 X54.741 Y85.45 E7.28733
G1 X54.454 Y84.954 E7.31116
G1 X54.059 Y84.141 E7.34874
G1 X53.934 Y83.871 E7.36111
G1 X53.659 Y83.259 E7.389
G1 X53.461 Y82.717 E7.41299
G1 X53.215 Y81.852 E7.45038
G1 X53.174 Y81.7 E7.45692
G1 X52.978 Y80.93 E7.48996
G1 X52.876 Y80.358 E7.51411
G1 X52.779 Y79.429 E7.55295
G1 X52.76 Y79.194 E7.56275
G1 X52.709 Y78.497 E7.59181
G1 X52.698 Y78.268 E7.60134
G1 X52.686 Y77.504 E7.6331
G1 X52.686 Y75.356 E7.72241
G1 X52.646 Y72.556 E7.83883
G1 X52.533 Y69.885 E7.94998
G1 X52.341 Y67.178 E8.0628
G1 X52.071 Y64.457 E8.17648
G1 X51.728 Y61.772 E8.28902
G1 X51.305 Y59.081 E8.40227
G1 X50.805 Y56.39 E8.51607
G1 X50.248 Y53.806 E8.62597
G1 X49.453 Y50.592 E8.76362
G1 X49.265 Y49.886 E8.79399
G1 X49.138 Y49.217 E8.8223
G1 X49.055 Y48.354 E8.85835
G1 X49.046 Y47.649 E8.88766
G1 X49.047 Y46.539 E8.93381
G1 X49.057 Y45.864 E8.96187
G1 X49.076 Y45.53 E8.97578
G1 X49.13 Y44.983 E8.99863
G1 X49.213 Y44.321 E9.02637
G1 X49.308 Y43.828 E9.04725
G1 X49.399 Y43.517 E9.06072
G1 X49.573 Y43.002 E9.08332
G1 X49.803 Y42.376 E9.11105
G1 X50.142 Y41.674 E9.14346
G1 X50.472 Y41.136 E9.1697
G1 X50.79 Y40.646 E9.19398
G1 X51.185 Y40.133 E9.2209
G0 F1200 X51.481 Y40.402
G1 F600 X51.926 Y39.94 E9.24757
G1 X52.427 Y39.452 E9.27665
G1 X52.842 Y39.107 E9.29908
G1 X53.005 Y38.994 E9.30733
G1 X53.425 Y38.722 E9.32813
G1 X54.019 Y38.361 E9.35703
G1 X54.473 Y38.128 E9.37825
G1 X55.158 Y37.871 E9.40866
G1 X55.802 Y37.656 E9.43689
G1 X56.322 Y37.525 E9.45919
G1 X57.018 Y37.431 E9.48838
G1 X57.691 Y37.364 E9.5165
G1 X57.993 Y37.346 E9.52908
G1 X58.667 Y37.336 E9.55711
G1 X61.525 Y37.336 E9.67593
G1 X63.247 Y37.371 E9.74753
G1 X63.796 Y37.412 E9.77042
G1 X64.297 Y37.487 E9.79148
G1 X65.184 Y37.657 E9.82903
G1 X67.93 Y38.144 E9.94498
G1 X70.601 Y38.541 E10.05725
G1 X73.349 Y38.87 E10.17231
G1 X76.03 Y39.114 E10.28424
G1 X78.758 Y39.285 E10.39787
G1 X81.487 Y39.378 E10.5114
G1 X84.218 Y39.395 E10.62494
G1 X86.944 Y39.334 E10.73831
G1 X89.638 Y39.197 E10.85045
G1 X92.399 Y38.978 E10.9656
G1 X95.078 Y38.691 E11.07762
G1 X97.785 Y38.322 E11.19121
G1 X101.323 Y37.721 E11.34041
G1 X102.52 Y37.497 E11.39103
G1 X103.308 Y37.386 E11.42412
G1 X103.55 Y37.374 E11.43419
G1 X105.396 Y37.336 E11.51096
G1 X108.207 Y37.337 E11.62782
G1 X108.882 Y37.347 E11.65589
G1 X109.184 Y37.365 E11.66847
G1 X109.875 Y37.434 E11.69734
G1 X110.403 Y37.502 E11.71947
G1 X111.074 Y37.655 E11.74809
G1 X111.6 Y37.829 E11.77112
G1 X111.729 Y37.875 E11.77681
G1 X112.267 Y38.076 E11.80069
G1 X112.731 Y38.288 E11.8219
G1 X113.316 Y38.639 E11.85026
G1 X113.899 Y39.016 E11.87913
G1 X114.362 Y39.373 E11.90344
G1 X114.814 Y39.807 E11.92949
G1 X115.308 Y40.313 E11.95889
G1 X115.744 Y40.859 E11.98794
G1 X116.099 Y41.407 E12.01508
G1 X116.414 Y41.928 E12.0404
G1 X116.656 Y42.407 E12.06271
G1 X116.927 Y43.151 E12.09563
G1 X117.107 Y43.691 E12.11929
G1 X117.247 Y44.262 E12.14373
G1 X117.331 Y44.896 E12.17032
G1 X117.399 Y45.58 E12.1989
G1 X117.419 Y45.936 E12.21373
G1 X117.427 Y46.564 E12.23984
G1 X117.427 Y47.675 E12.28603
G1 X117.416 Y48.384 E12.31551
G1 X117.35 Y49.074 E12.34433
G1 X117.232 Y49.747 E12.37273
G1 X117.164 Y50.022 E12.38451
G1 X116.581 Y52.248 E12.48018
G1 X115.971 Y54.885 E12.59271
G1 X115.425 Y57.577 E12.70691
G1 X114.967 Y60.244 E12.81941
G1 X114.58 Y62.942 E12.93273
G1 X114.272 Y65.622 E13.04488
G1 X114.035 Y68.373 E13.15968
G1 X113.876 Y71.105 E13.27345
G1 X113.797 Y73.785 E13.38492
G1 X113.785 Y75.324 E13.44891
G1 X113.785 Y77.548 E13.54137
G1 X113.775 Y78.225 E13.56952
G1 X113.766 Y78.427 E13.57793
G1 X113.706 Y79.26 E13.61265
G1 X113.674 Y79.621 E13.62772
G1 X113.61 Y80.249 E13.65396
G1 X113.521 Y80.759 E13.67549
G1 X113.282 Y81.709 E13.71621
G1 X113.234 Y81.887 E13.72388
G1 X113.042 Y82.566 E13.75322
G1 X112.864 Y83.057 E13.77493
G1 X112.523 Y83.816 E13.80952
G1 X112.38 Y84.125 E13.82368
G1 X112.097 Y84.712 E13.85077
G1 X111.836 Y85.166 E13.87254
G1 X111.269 Y86.002 E13.91454
G1 X110.775 Y86.689 E13.94972
G1 X110.438 Y87.092 E13.97156
G1 X109.822 Y87.728 E14.00837
G1 X109.142 Y88.394 E14.04794
G1 X108.737 Y88.735 E14.06996
G1 X108.014 Y89.258 E14.10705
G1 X107.776 Y89.425 E14.11914
G1 X107.224 Y89.8 E14.14689
G1 X106.778 Y90.058 E14.16831
G1 X105.979 Y90.447 E14.20525
G1 X105.721 Y90.566 E14.21707
G1 X105.106 Y90.843 E14.24511
G1 X104.617 Y91.022 E14.26676
G1 X103.739 Y91.273 E14.30472
G1 X102.835 Y91.504 E14.34352
G1 X102.316 Y91.596 E14.36543
G1 X101.192 Y91.71 E14.4124
G1 X100.46 Y91.763 E14.44291
G1 X100.257 Y91.772 E14.45136
G1 X99.497 Y91.784 E14.48296
G1 X97.376 Y91.784 E14.57114
G1 X95.633 Y91.778 E14.64361
G1 X94.788 Y91.784 E14.67874
G1 X72.16 Y91.784 E15.6195
G1 X70.437 Y91.778 E15.69114
G1 X69.562 Y91.784 E15.72752
G1 X67.296 Y91.783 E15.82173
G1 X66.658 Y91.774 E15.84825
G1 X66.45 Y91.765 E15.85691
G1 X65.607 Y91.703 E15.89205
G1 X65.278 Y91.674 E15.90578
G1 X64.61 Y91.606 E15.9337
G1 X64.1 Y91.517 E15.95522
G1 X63.226 Y91.297 E15.99269
G1 X62.92 Y91.215 E16.00586
G1 X62.324 Y91.047 E16.03161
G1 X61.831 Y90.868 E16.05341
G1 X60.992 Y90.493 E16.09162
G1 X60.743 Y90.376 E16.10306
G1 X60.156 Y90.093 E16.13015
G1 X59.7 Y89.83 E16.15204
G1 X58.947 Y89.32 E16.18985
G1 X58.692 Y89.141 E16.2028
G1 X58.173 Y88.766 E16.22942
G1 X57.777 Y88.435 E16.25088
G1 X57.146 Y87.824 E16.2874
G1 X56.957 Y87.634 E16.29854
G1 X56.472 Y87.135 E16.32747
G1 X56.14 Y86.74 E16.34892
G1 X55.59 Y85.982 E16.38786
G1 X55.445 Y85.774 E16.3984
G1 X55.072 Y85.225 E16.42599
G1 X54.814 Y84.779 E16.44742
G1 X54.422 Y83.973 E16.48468
G1 X54.299 Y83.708 E16.49682
G1 X54.024 Y83.096 E16.52472
G1 X53.846 Y82.607 E16.54635
G1 X53.601 Y81.748 E16.58349
G1 X53.547 Y81.546 E16.59218
G1 X53.365 Y80.831 E16.62286
G1 X53.273 Y80.317 E16.64457
G1 X53.178 Y79.395 E16.6831
G1 X53.159 Y79.165 E16.6927
G1 X53.108 Y78.468 E16.72175
G1 X53.098 Y78.262 E16.73033
G1 X53.086 Y77.498 E16.7621
G1 X53.086 Y75.35 E16.8514
G1 X53.047 Y72.569 E16.96703
G1 X52.931 Y69.84 E17.08059
G1 X52.737 Y67.111 E17.19434
G1 X52.472 Y64.434 E17.30618
G1 X52.122 Y61.696 E17.42094
G1 X51.701 Y59.018 E17.53364
G1 X51.203 Y56.339 E17.64693
G1 X50.64 Y53.723 E17.75818
G1 X49.841 Y50.496 E17.8964
G1 X49.651 Y49.783 E17.92707
G1 X49.535 Y49.168 E17.95309
G1 X49.455 Y48.348 E17.98735
G1 X49.446 Y47.65 E18.01637
G1 X49.447 Y46.545 E18.06231
G1 X49.457 Y45.87 E18.09037
G1 X49.474 Y45.569 E18.10291
G1 X49.528 Y45.022 E18.12576
G1 X49.61 Y44.372 E18.153
G1 X49.778 Y43.645 E18.18402
G1 X49.952 Y43.13 E18.20662
G1 X50.178 Y42.514 E18.2339
G1 X50.483 Y41.882 E18.26308
G1 X50.807 Y41.354 E18.28883
G1 X51.125 Y40.864 E18.31312
G1 X51.481 Y40.402 E18.33737
G0 F1200 X51.777 Y40.671
G1 F600 X52.212 Y40.22 E18.36342
G1 X52.706 Y39.739 E18.39208
G1 X53.102 Y39.412 E18.41343
G1 X53.223 Y39.33 E18.41951
G1 X53.724 Y39.007 E18.44429
G1 X54.226 Y38.703 E18.46869
G1 X54.684 Y38.473 E18.49
G1 X55.294 Y38.247 E18.51705
G1 X55.928 Y38.035 E18.54484
G1 X56.591 Y37.887 E18.57308
G1 X57.145 Y37.82 E18.59628
G1 X57.73 Y37.762 E18.62072
G1 X57.999 Y37.746 E18.63193
G1 X58.673 Y37.736 E18.65995
G1 X61.525 Y37.736 E18.77852
G1 X63.239 Y37.771 E18.8498
G1 X63.76 Y37.81 E18.87152
G1 X64.222 Y37.879 E18.89094
G1 X65.158 Y38.059 E18.93057
G1 X67.867 Y38.539 E19.04495
G1 X70.571 Y38.941 E19.1586
G1 X73.263 Y39.263 E19.27132
G1 X76.005 Y39.513 E19.38579
G1 X78.755 Y39.685 E19.50035
G1 X81.471 Y39.778 E19.61333
G1 X84.224 Y39.795 E19.72779
G1 X86.938 Y39.734 E19.84066
G1 X89.692 Y39.594 E19.9553
G1 X92.402 Y39.38 E20.06832
G1 X95.138 Y39.086 E20.18273
G1 X97.846 Y38.717 E20.29635
G1 X101.408 Y38.112 E20.44656
G1 X102.583 Y37.892 E20.49626
G1 X103.335 Y37.785 E20.52784
G1 X103.558 Y37.774 E20.53712
G1 X105.396 Y37.736 E20.61356
G1 X108.201 Y37.737 E20.73017
G1 X108.876 Y37.747 E20.75824
G1 X109.144 Y37.763 E20.7694
G1 X109.824 Y37.831 E20.79781
G1 X110.352 Y37.899 E20.81995
G1 X110.948 Y38.035 E20.84536
G1 X111.474 Y38.209 E20.8684
G1 X111.589 Y38.249 E20.87346
G1 X112.127 Y38.45 E20.89734
G1 X112.711 Y38.737 E20.92439
G1 X113.176 Y39.023 E20.94709
G1 X113.681 Y39.351 E20.97212
G1 X114.093 Y39.669 E20.99376
G1 X114.535 Y40.094 E21.01925
G1 X115.021 Y40.592 E21.04818
G1 X115.409 Y41.077 E21.07401
G1 X115.7 Y41.524 E21.09618
G1 X116.071 Y42.135 E21.1259
G1 X116.298 Y42.587 E21.14693
G1 X116.548 Y43.277 E21.17744
G1 X116.728 Y43.817 E21.2011
G1 X116.852 Y44.325 E21.22285
G1 X116.934 Y44.945 E21.24885
G1 X117.001 Y45.619 E21.27701
G1 X117.019 Y45.941 E21.29041
G1 X117.027 Y46.569 E21.31653
G1 X117.027 Y47.669 E21.36226
G1 X117.016 Y48.378 E21.39174
G1 X116.953 Y49.023 E21.41868
G1 X116.844 Y49.65 E21.44514
G1 X116.777 Y49.92 E21.45671
G1 X116.192 Y52.153 E21.55268
G1 X115.583 Y54.787 E21.66507
G1 X115.033 Y57.496 E21.78
G1 X114.57 Y60.197 E21.89393
G1 X114.185 Y62.875 E22.00641
G1 X113.871 Y65.61 E22.12087
G1 X113.638 Y68.316 E22.23379
G1 X113.478 Y71.071 E22.34852
G1 X113.396 Y73.851 E22.46415
G1 X113.385 Y75.321 E22.52527
G1 X113.385 Y77.542 E22.61761
G1 X113.375 Y78.219 E22.64576
G1 X113.367 Y78.399 E22.65325
G1 X113.308 Y79.226 E22.68772
G1 X113.277 Y79.58 E22.70249
G1 X113.213 Y80.208 E22.72873
G1 X113.133 Y80.662 E22.7479
G1 X112.896 Y81.604 E22.78829
G1 X112.849 Y81.778 E22.79578
G1 X112.657 Y82.457 E22.82511
G1 X112.499 Y82.894 E22.84443
G1 X112.16 Y83.648 E22.8788
G1 X112.019 Y83.952 E22.89274
G1 X111.736 Y84.539 E22.91983
G1 X111.505 Y84.942 E22.93914
G1 X110.997 Y85.693 E22.97684
G1 X110.45 Y86.455 E23.01583
G1 X110.151 Y86.813 E23.03523
G1 X109.472 Y87.512 E23.07574
G1 X108.862 Y88.108 E23.1112
G1 X108.502 Y88.411 E23.13076
G1 X107.784 Y88.931 E23.16762
G1 X107.551 Y89.094 E23.17944
G1 X106.999 Y89.469 E23.20718
G1 X106.603 Y89.699 E23.22622
G1 X105.81 Y90.084 E23.26287
G1 X105.557 Y90.202 E23.27448
G1 X104.942 Y90.479 E23.30252
G1 X104.507 Y90.638 E23.32178
G1 X103.637 Y90.886 E23.35939
G1 X103.407 Y90.947 E23.36928
G1 X102.737 Y91.117 E23.39802
G1 X102.275 Y91.198 E23.41752
G1 X101.163 Y91.311 E23.46399
G1 X100.431 Y91.364 E23.4945
G1 X100.251 Y91.372 E23.50199
G1 X99.491 Y91.384 E23.53359
G1 X97.377 Y91.384 E23.62148
G1 X95.631 Y91.378 E23.69408
G1 X94.785 Y91.384 E23.72925
G1 X72.161 Y91.384 E24.66985
G1 X70.435 Y91.378 E24.7416
G1 X69.563 Y91.384 E24.77786
G1 X67.302 Y91.383 E24.87186
G1 X66.664 Y91.374 E24.89839
G1 X66.479 Y91.366 E24.90609
G1 X65.642 Y91.305 E24.94098
G1 X65.319 Y91.277 E24.95446
G1 X64.651 Y91.209 E24.98237
G1 X64.197 Y91.129 E25.00154
G1 X63.33 Y90.911 E25.03871
G1 X63.029 Y90.83 E25.05167
G1 X62.433 Y90.662 E25.07741
G1 X61.994 Y90.503 E25.09682
G1 X61.162 Y90.13 E25.13473
G1 X60.916 Y90.015 E25.14602
G1 X60.329 Y89.732 E25.17311
G1 X59.924 Y89.499 E25.19254
G1 X59.176 Y88.992 E25.23011
G1 X58.926 Y88.817 E25.24279
G1 X58.407 Y88.442 E25.26941
G1 X58.056 Y88.148 E25.28845
G1 X57.429 Y87.541 E25.32473
G1 X57.244 Y87.355 E25.33564
G1 X56.759 Y86.856 E25.36457
G1 X56.464 Y86.506 E25.3836
G1 X55.918 Y85.752 E25.4223
G1 X55.776 Y85.549 E25.4326
G1 X55.403 Y85 E25.4602
G1 X55.173 Y84.604 E25.47924
G1 X54.785 Y83.805 E25.51616
G1 X54.664 Y83.544 E25.52813
G1 X54.389 Y82.932 E25.55602
G1 X54.231 Y82.498 E25.57522
