;FLAVOR:Marlin
;TIME:2327
;Filament used: 0.887498m
;Layer height: 0.09
;MINX:98.592
;MINY:84.238
;MINZ:0.23
;MAXX:151.405
;MAXY:125.748
;MAXZ:10.04
;Generated with Cura_SteamEngine 4.10.0
M82 ;absolute extrusion mode
G21 ; set units to millimeters
G90 ; use absolute positioning
M82 ; absolute extrusion mode
M104 S215.0 ; set extruder temp
M140 S60 ; set bed temp
M190 S60 ; wait for bed temp
M109 S215.0 ; wait for extruder temp
G28 W ; home all without mesh bed level
G80 ; mesh bed leveling
G92 E0.0 ; reset extruder distance position
G1 Y-3.0 F1000.0 ; go outside print area
G1 X60.0 E9.0 F1000.0 ; intro line
G1 X100.0 E21.5 F1000.0 ; intro line
G92 E0.0 ; reset extruder distance position
G92 E0
G92 E0
G1 F2100 E-0.8
;LAYER_COUNT:110
;LAYER:0
M107
G0 F3600 X102.536 Y88.762 Z0.23
;TYPE:SKIRT
G1 F2100 E0
G1 F1800 X102.754 Y88.536 E0.01201
G1 X103.793 Y87.584 E0.06591
G1 X104.106 Y87.331 E0.0813
G1 X105.149 Y86.581 E0.13044
G1 X105.416 Y86.411 E0.14255
G1 X106.242 Y85.932 E0.17907
G1 X106.995 Y85.566 E0.21109
G1 X108.314 Y85.04 E0.26541
G1 X108.72 Y84.907 E0.28175
G1 X109.952 Y84.579 E0.33051
G1 X110.217 Y84.524 E0.34087
G1 X111.159 Y84.369 E0.37738
G1 X112.143 Y84.282 E0.41517
G1 X112.861 Y84.249 E0.44266
G1 X113.722 Y84.238 E0.47559
G1 X136.293 Y84.238 E1.33891
G1 X137.098 Y84.248 E1.36971
G1 X137.73 Y84.27 E1.3939
G1 X139.089 Y84.41 E1.44615
G1 X139.546 Y84.485 E1.46386
G1 X140.921 Y84.8 E1.51782
G1 X141.179 Y84.876 E1.52811
G1 X142.439 Y85.329 E1.57932
G1 X142.832 Y85.497 E1.59567
G1 X144.084 Y86.125 E1.64924
G1 X144.402 Y86.31 E1.66332
G1 X145.552 Y87.077 E1.71619
G1 X145.787 Y87.255 E1.72746
G1 X146.809 Y88.128 E1.77887
G1 X147.101 Y88.409 E1.79437
G1 X147.76 Y89.099 E1.83087
G1 X148.308 Y89.762 E1.86377
G1 X149.043 Y90.784 E1.91192
G1 X149.2 Y91.03 E1.92308
G1 X149.679 Y91.856 E1.9596
G1 X150.092 Y92.705 E1.99572
G1 X150.607 Y93.998 E2.04895
G1 X150.7 Y94.28 E2.06031
G1 X151.048 Y95.592 E2.11223
G1 X151.126 Y95.978 E2.12729
G1 X151.318 Y97.362 E2.18073
G1 X151.343 Y97.687 E2.1932
G1 X151.375 Y98.375 E2.21954
G1 X151.392 Y99.478 E2.26174
G1 X151.392 Y108.178 E2.59451
G1 X151.397 Y108.327 E2.60021
G1 X151.405 Y109.827 E2.65758
G1 X151.394 Y110.119 E2.66876
G1 X151.403 Y111.477 E2.7207
G1 X151.398 Y112.22 E2.74912
G1 X151.351 Y113.173 E2.78562
G1 X151.283 Y113.755 E2.80803
G1 X151.246 Y114.014 E2.81804
G1 X151.072 Y114.953 E2.85457
G1 X150.82 Y115.874 E2.89109
G1 X150.377 Y117.035 E2.93862
G1 X150.248 Y117.325 E2.95076
G1 X149.824 Y118.181 E2.9873
G1 X149.329 Y118.998 E3.02383
G1 X148.694 Y119.863 E3.06488
G1 X148.588 Y119.994 E3.07132
G1 X147.957 Y120.71 E3.10783
G1 X147.184 Y121.445 E3.14863
G1 X147.021 Y121.586 E3.15687
G1 X146.274 Y122.18 E3.19337
G1 X145.077 Y122.942 E3.24765
G1 X144.925 Y123.026 E3.25429
G1 X144.071 Y123.452 E3.29079
G1 X142.967 Y123.879 E3.33607
G1 X142.766 Y123.945 E3.34416
G1 X141.848 Y124.205 E3.38065
G1 X140.484 Y124.443 E3.43361
G1 X140.404 Y124.452 E3.43669
G1 X139.423 Y124.519 E3.4743
G1 X138.163 Y124.55 E3.52251
G1 X137.277 Y124.556 E3.5564
G1 X134.649 Y124.611 E3.65694
G1 X132.187 Y124.732 E3.75123
G1 X129.667 Y124.928 E3.8479
G1 X127.194 Y125.191 E3.94303
G1 X124.069 Y125.62 E4.06368
G1 X123.226 Y125.704 E4.09608
G1 X122.51 Y125.742 E4.12351
G1 X122.302 Y125.748 E4.13147
G1 X121.633 Y125.748 E4.15705
G1 X120.965 Y125.719 E4.18263
G1 X120.34 Y125.67 E4.20661
G1 X119.688 Y125.595 E4.23171
G1 X119.474 Y125.565 E4.23998
G1 X118.885 Y125.466 E4.26282
G1 X118.362 Y125.361 E4.28322
G1 X118.122 Y125.308 E4.29263
G1 X117.506 Y125.154 E4.31691
G1 X116.954 Y124.993 E4.33891
G1 X116.735 Y124.924 E4.34769
G1 X116.147 Y124.721 E4.37148
G1 X115.501 Y124.471 E4.39798
G1 X114.853 Y124.191 E4.42498
G1 X114.275 Y123.913 E4.44951
G1 X113.76 Y123.648 E4.47166
G1 X113.491 Y123.504 E4.48333
G1 X106.574 Y119.707 E4.78514
G1 X106.029 Y119.398 E4.8091
G1 X105.373 Y119.005 E4.83835
G1 X104.428 Y118.362 E4.88207
G1 X104.227 Y118.21 E4.89171
G1 X103.777 Y117.851 E4.91373
G1 X103.023 Y117.169 E4.95262
G1 X102.709 Y116.858 E4.96952
G1 X102.059 Y116.158 E5.00606
G1 X101.568 Y115.547 E5.03604
G1 X100.841 Y114.502 E5.08473
G1 X100.655 Y114.2 E5.0983
G1 X100.006 Y112.988 E5.15088
G1 X99.844 Y112.636 E5.16571
G1 X99.338 Y111.331 E5.21924
G1 X99.244 Y111.036 E5.23108
G1 X98.927 Y109.811 E5.27948
G1 X98.851 Y109.431 E5.29431
G1 X98.663 Y108.062 E5.34716
G1 X98.637 Y107.721 E5.36024
G1 X98.605 Y107.025 E5.38689
G1 X98.592 Y106.052 E5.42411
G1 X98.593 Y99.143 E5.68837
G1 X98.601 Y98.591 E5.70949
G1 X98.63 Y97.843 E5.73812
G1 X98.679 Y97.183 E5.76343
G1 X98.773 Y96.466 E5.79109
G1 X98.826 Y96.144 E5.80358
G1 X99.125 Y94.824 E5.85534
G1 X99.233 Y94.451 E5.8702
G1 X99.706 Y93.127 E5.92397
G1 X99.845 Y92.803 E5.93746
G1 X100.458 Y91.584 E5.98965
G1 X100.626 Y91.294 E6.00247
G1 X101.396 Y90.133 E6.05575
G1 X101.647 Y89.801 E6.07167
G1 X102.536 Y88.762 E6.12398
G0 F3600 X102.824 Y89.039
G1 F1800 X103.042 Y88.813 E6.13599
G1 X104.044 Y87.895 E6.18796
G1 X104.357 Y87.642 E6.20336
G1 X105.364 Y86.918 E6.2508
G1 X105.631 Y86.748 E6.2629
G1 X106.842 Y86.08 E6.3158
G1 X107.166 Y85.927 E6.32951
G1 X108.439 Y85.421 E6.3819
G1 X108.845 Y85.288 E6.39825
G1 X110.034 Y84.971 E6.44531
G1 X110.299 Y84.916 E6.45566
G1 X111.683 Y84.719 E6.50913
G1 X112.173 Y84.681 E6.52793
G1 X112.866 Y84.649 E6.55447
G1 X113.722 Y84.638 E6.58721
G1 X136.293 Y84.638 E7.45053
G1 X137.092 Y84.648 E7.4811
G1 X137.713 Y84.67 E7.50487
G1 X139.024 Y84.805 E7.55527
G1 X139.481 Y84.88 E7.57299
G1 X140.808 Y85.183 E7.62505
G1 X141.066 Y85.259 E7.63534
G1 X142.282 Y85.696 E7.68476
G1 X142.675 Y85.864 E7.70111
G1 X143.882 Y86.471 E7.75279
G1 X144.2 Y86.656 E7.76686
G1 X145.311 Y87.395 E7.81789
G1 X145.546 Y87.573 E7.82917
G1 X146.531 Y88.416 E7.87876
G1 X146.823 Y88.697 E7.89426
G1 X147.76 Y89.719 E7.94729
G1 X147.997 Y90.013 E7.96174
G1 X148.706 Y90.999 E8.00819
G1 X148.863 Y91.245 E8.01935
G1 X149.539 Y92.471 E8.0729
G1 X149.73 Y92.876 E8.09003
G1 X150.228 Y94.123 E8.14139
G1 X150.321 Y94.405 E8.15275
G1 X150.656 Y95.671 E8.20284
G1 X150.734 Y96.057 E8.2179
G1 X150.92 Y97.392 E8.26945
G1 X150.945 Y97.717 E8.28192
G1 X150.976 Y98.381 E8.30735
G1 X150.991 Y99.298 E8.34243
G1 X150.992 Y108.25 E8.68483
G1 X150.997 Y108.329 E8.68786
G1 X151.005 Y109.829 E8.74524
G1 X150.994 Y110.117 E8.75626
G1 X151.003 Y111.474 E8.80816
G1 X150.998 Y112.217 E8.83658
G1 X150.951 Y113.154 E8.87247
G1 X150.887 Y113.699 E8.89346
G1 X150.85 Y113.958 E8.90346
G1 X150.678 Y114.88 E8.93934
G1 X150.428 Y115.784 E8.97521
G1 X150.011 Y116.873 E9.01982
G1 X149.882 Y117.163 E9.03196
G1 X149.465 Y118.003 E9.06783
G1 X148.978 Y118.804 E9.10368
G1 X148.383 Y119.611 E9.14203
G1 X148.277 Y119.742 E9.14848
G1 X147.657 Y120.446 E9.18436
G1 X146.922 Y121.142 E9.22308
G1 X146.759 Y121.283 E9.23132
G1 X146.025 Y121.866 E9.26717
G1 X144.884 Y122.592 E9.3189
G1 X144.732 Y122.676 E9.32554
G1 X143.892 Y123.094 E9.36143
G1 X142.843 Y123.499 E9.40444
G1 X142.642 Y123.565 E9.41253
G1 X141.739 Y123.819 E9.44841
G1 X140.44 Y124.045 E9.49884
G1 X140.36 Y124.054 E9.50192
G1 X139.413 Y124.119 E9.53823
G1 X138.16 Y124.15 E9.58617
G1 X137.264 Y124.156 E9.62044
G1 X134.658 Y124.211 E9.72014
G1 X132.135 Y124.335 E9.81676
G1 X129.627 Y124.53 E9.91298
G1 X127.167 Y124.791 E10.0076
G1 X124.015 Y125.224 E10.1293
G1 X123.201 Y125.305 E10.16058
G1 X122.498 Y125.342 E10.18751
G1 X122.29 Y125.348 E10.19547
G1 X121.645 Y125.348 E10.22014
G1 X120.985 Y125.32 E10.24541
G1 X120.382 Y125.272 E10.26854
G1 X119.744 Y125.198 E10.29311
G1 X119.53 Y125.168 E10.30138
G1 X118.961 Y125.073 E10.32344
G1 X118.448 Y124.97 E10.34346
G1 X118.208 Y124.917 E10.35286
G1 X117.614 Y124.769 E10.37627
G1 X117.074 Y124.612 E10.39778
G1 X116.855 Y124.543 E10.40656
G1 X116.287 Y124.346 E10.42956
G1 X115.654 Y124.102 E10.45551
G1 X115.021 Y123.829 E10.48187
G1 X114.458 Y123.557 E10.50579
G1 X113.943 Y123.292 E10.52794
G1 X113.683 Y123.154 E10.5392
G1 X106.772 Y119.359 E10.84077
G1 X106.227 Y119.05 E10.86474
G1 X105.581 Y118.663 E10.89354
G1 X104.669 Y118.043 E10.93572
G1 X104.09 Y117.591 E10.96382
G1 X104.032 Y117.543 E10.9667
G1 X103.304 Y116.884 E11.00426
G1 X102.99 Y116.573 E11.02116
G1 X102.066 Y115.534 E11.07434
G1 X101.883 Y115.3 E11.0857
G1 X101.182 Y114.293 E11.13264
G1 X100.996 Y113.991 E11.1462
G1 X100.369 Y112.821 E11.19697
G1 X100.207 Y112.469 E11.2118
G1 X99.719 Y111.21 E11.26344
G1 X99.625 Y110.915 E11.27528
G1 X99.32 Y109.732 E11.32201
G1 X99.244 Y109.352 E11.33684
G1 X99.062 Y108.031 E11.38784
G1 X99.036 Y107.69 E11.40092
G1 X99.005 Y107.019 E11.42661
G1 X98.992 Y106.052 E11.4636
G1 X98.993 Y99.149 E11.72764
G1 X99.001 Y98.597 E11.74875
G1 X99.029 Y97.861 E11.77692
G1 X99.077 Y97.222 E11.80144
G1 X99.168 Y96.53 E11.82813
G1 X99.221 Y96.208 E11.84061
G1 X99.509 Y94.936 E11.8905
G1 X99.617 Y94.563 E11.90535
G1 X100.074 Y93.285 E11.95726
G1 X100.213 Y92.961 E11.97075
G1 X100.804 Y91.784 E12.02113
G1 X100.972 Y91.494 E12.03394
G1 X101.715 Y90.374 E12.08535
G1 X101.966 Y90.042 E12.10127
G1 X102.824 Y89.039 E12.15176
G0 F3600 X103.112 Y89.317
G1 F1800 X103.33 Y89.091 E12.16377
G1 X104.296 Y88.206 E12.21388
G1 X104.609 Y87.953 E12.22927
G1 X105.579 Y87.256 E12.27496
G1 X105.846 Y87.086 E12.28707
G1 X107.013 Y86.442 E12.33805
G1 X107.337 Y86.289 E12.35175
G1 X108.563 Y85.801 E12.40223
G1 X108.969 Y85.668 E12.41857
G1 X110.115 Y85.362 E12.46394
G1 X110.38 Y85.307 E12.47429
G1 X111.714 Y85.118 E12.52582
G1 X112.204 Y85.08 E12.54462
G1 X112.872 Y85.049 E12.5702
G1 X113.722 Y85.038 E12.60271
G1 X136.293 Y85.038 E13.46603
G1 X137.087 Y85.048 E13.49641
G1 X137.696 Y85.07 E13.51972
G1 X138.96 Y85.2 E13.56832
G1 X139.417 Y85.275 E13.58603
G1 X140.695 Y85.567 E13.63617
G1 X140.953 Y85.643 E13.64646
G1 X142.125 Y86.064 E13.69409
G1 X142.518 Y86.232 E13.71044
G1 X143.681 Y86.817 E13.76024
G1 X143.999 Y87.002 E13.77431
G1 X145.069 Y87.714 E13.82347
G1 X145.304 Y87.892 E13.83474
G1 X146.254 Y88.704 E13.88254
G1 X146.546 Y88.985 E13.89804
G1 X147.449 Y89.97 E13.94916
G1 X147.686 Y90.264 E13.9636
G1 X148.368 Y91.214 E14.00833
G1 X148.525 Y91.46 E14.01949
G1 X149.177 Y92.642 E14.07113
G1 X149.368 Y93.047 E14.08825
G1 X149.848 Y94.248 E14.13772
G1 X149.941 Y94.53 E14.14908
G1 X150.264 Y95.75 E14.19735
G1 X150.342 Y96.136 E14.21241
G1 X150.521 Y97.423 E14.26212
G1 X150.546 Y97.748 E14.27458
G1 X150.576 Y98.388 E14.29909
G1 X150.591 Y99.305 E14.33417
G1 X150.592 Y108.231 E14.67558
G1 X150.597 Y108.331 E14.67941
G1 X150.605 Y109.831 E14.73678
G1 X150.594 Y110.115 E14.74766
G1 X150.603 Y111.471 E14.79952
G1 X150.598 Y112.214 E14.82794
G1 X150.552 Y113.134 E14.86318
G1 X150.491 Y113.642 E14.88275
G1 X150.454 Y113.901 E14.89275
G1 X150.285 Y114.806 E14.92797
G1 X150.037 Y115.693 E14.96319
G1 X149.646 Y116.71 E15.00487
G1 X149.517 Y117 E15.01701
G1 X149.107 Y117.824 E15.05221
G1 X148.626 Y118.61 E15.08746
G1 X148.072 Y119.36 E15.12312
G1 X147.966 Y119.491 E15.12957
G1 X147.357 Y120.181 E15.16477
G1 X146.661 Y120.84 E15.20143
G1 X146.498 Y120.981 E15.20968
G1 X145.776 Y121.552 E15.24488
G1 X144.69 Y122.242 E15.2941
G1 X144.538 Y122.326 E15.30074
G1 X143.714 Y122.735 E15.33593
G1 X142.718 Y123.119 E15.37676
G1 X142.517 Y123.185 E15.38485
G1 X141.631 Y123.434 E15.42005
G1 X140.395 Y123.648 E15.46803
G1 X140.315 Y123.657 E15.47111
G1 X139.403 Y123.719 E15.50607
G1 X138.157 Y123.75 E15.55375
G1 X137.254 Y123.756 E15.58829
G1 X134.629 Y123.811 E15.68871
G1 X132.12 Y123.935 E15.7848
G1 X129.625 Y124.128 E15.88051
G1 X127.104 Y124.397 E15.97749
G1 X123.961 Y124.828 E16.09883
G1 X123.176 Y124.906 E16.129
G1 X122.487 Y124.943 E16.15539
G1 X122.279 Y124.949 E16.16335
G1 X121.657 Y124.948 E16.18714
G1 X121.006 Y124.92 E16.21207
G1 X120.424 Y124.875 E16.23439
G1 X119.799 Y124.802 E16.25846
G1 X119.585 Y124.772 E16.26673
G1 X119.037 Y124.681 E16.28798
G1 X118.534 Y124.58 E16.3076
G1 X118.294 Y124.527 E16.317
G1 X117.722 Y124.383 E16.33956
G1 X117.195 Y124.23 E16.36055
G1 X116.976 Y124.161 E16.36933
G1 X116.428 Y123.972 E16.3915
G1 X115.807 Y123.732 E16.41697
G1 X115.19 Y123.466 E16.44267
G1 X114.641 Y123.201 E16.46599
G1 X114.126 Y122.936 E16.48814
G1 X113.876 Y122.803 E16.49897
G1 X106.969 Y119.011 E16.80035
G1 X106.424 Y118.702 E16.82432
G1 X105.789 Y118.321 E16.85264
G1 X104.91 Y117.724 E16.89328
G1 X104.345 Y117.283 E16.9207
G1 X104.287 Y117.235 E16.92358
G1 X103.586 Y116.6 E16.95976
G1 X103.272 Y116.289 E16.97666
G1 X102.381 Y115.288 E17.02792
G1 X102.198 Y115.054 E17.03928
G1 X101.522 Y114.083 E17.08453
G1 X101.336 Y113.781 E17.0981
G1 X100.733 Y112.654 E17.14699
G1 X100.571 Y112.302 E17.16181
G1 X100.1 Y111.088 E17.21162
G1 X100.006 Y110.793 E17.22346
G1 X99.712 Y109.654 E17.26845
G1 X99.636 Y109.274 E17.28328
G1 X99.461 Y108.001 E17.33243
G1 X99.435 Y107.66 E17.34551
G1 X99.405 Y107.013 E17.37028
G1 X99.392 Y106.052 E17.40704
G1 X99.393 Y99.154 E17.67088
G1 X99.401 Y98.602 E17.692
G1 X99.429 Y97.879 E17.71967
G1 X99.475 Y97.262 E17.74334
G1 X99.563 Y96.595 E17.76907
G1 X99.616 Y96.273 E17.78155
G1 X99.893 Y95.047 E17.82963
G1 X100.001 Y94.674 E17.84448
G1 X100.442 Y93.443 E17.8945
G1 X100.581 Y93.119 E17.90798
G1 X101.15 Y91.985 E17.95651
G1 X101.318 Y91.695 E17.96933
G1 X102.035 Y90.615 E18.01891
G1 X102.286 Y90.283 E18.03483
G1 X103.112 Y89.317 E18.08345
G0 F3600 X103.4 Y89.595
G1 F1800 X103.618 Y89.369 E18.09546
G1 X104.547 Y88.517 E18.14367
G1 X104.86 Y88.264 E18.15907
G1 X105.794 Y87.593 E18.20306
G1 X106.061 Y87.423 E18.21516
G1 X107.184 Y86.804 E18.26421
G1 X107.508 Y86.651 E18.27791
G1 X108.688 Y86.181 E18.3265
G1 X109.094 Y86.048 E18.34284
G1 X110.196 Y85.754 E18.38646
G1 X110.461 Y85.699 E18.39681
G1 X111.745 Y85.517 E18.44642
G1 X112.235 Y85.479 E18.46522
G1 X112.878 Y85.449 E18.48984
G1 X113.722 Y85.438 E18.52212
G1 X136.293 Y85.438 E19.38544
G1 X137.081 Y85.448 E19.41559
G1 X137.679 Y85.469 E19.43847
G1 X138.895 Y85.595 E19.48523
G1 X139.352 Y85.67 E19.50295
G1 X140.582 Y85.951 E19.55121
G1 X140.84 Y86.027 E19.56149
G1 X141.967 Y86.432 E19.6073
G1 X142.36 Y86.6 E19.62365
G1 X143.48 Y87.162 E19.67158
G1 X143.798 Y87.347 E19.68565
G1 X144.828 Y88.033 E19.73298
G1 X145.063 Y88.211 E19.74426
G1 X145.977 Y88.992 E19.79024
G1 X146.269 Y89.273 E19.80574
G1 X147.137 Y90.222 E19.85493
G1 X147.374 Y90.516 E19.86938
G1 X148.031 Y91.43 E19.91243
G1 X148.188 Y91.676 E19.9236
G1 X148.816 Y92.812 E19.97324
G1 X149.007 Y93.217 E19.99037
G1 X149.468 Y94.373 E20.03797
G1 X149.561 Y94.655 E20.04933
G1 X149.872 Y95.83 E20.09582
G1 X149.95 Y96.216 E20.11088
G1 X150.122 Y97.454 E20.15869
G1 X150.147 Y97.779 E20.17116
G1 X150.176 Y98.394 E20.19471
G1 X150.191 Y99.311 E20.22979
G1 X150.192 Y108.195 E20.56959
G1 X150.197 Y108.334 E20.57491
G1 X150.205 Y109.834 E20.63229
G1 X150.194 Y110.113 E20.64297
G1 X150.203 Y111.469 E20.69483
G1 X150.198 Y112.212 E20.72325
G1 X150.152 Y113.114 E20.7578
G1 X150.058 Y113.844 E20.78595
G1 X149.891 Y114.732 E20.82051
G1 X149.646 Y115.601 E20.85505
G1 X149.281 Y116.548 E20.89387
G1 X149.152 Y116.838 E20.90601
G1 X148.748 Y117.646 E20.94056
G1 X148.275 Y118.415 E20.97509
G1 X147.761 Y119.108 E21.00809
G1 X147.655 Y119.239 E21.01454
G1 X147.057 Y119.915 E21.04906
G1 X146.399 Y120.537 E21.08369
G1 X146.236 Y120.678 E21.09194
G1 X145.528 Y121.238 E21.12646
G1 X144.497 Y121.891 E21.17314
G1 X144.345 Y121.975 E21.17979
G1 X143.536 Y122.377 E21.21434
G1 X142.593 Y122.739 E21.25298
G1 X142.392 Y122.805 E21.26107
G1 X141.522 Y123.048 E21.29562
G1 X140.35 Y123.25 E21.34111
G1 X140.27 Y123.259 E21.34419
G1 X139.392 Y123.32 E21.37785
G1 X138.343 Y123.347 E21.41799
G1 X137.243 Y123.357 E21.46006
G1 X134.635 Y123.411 E21.55984
G1 X132.07 Y123.537 E21.65806
G1 X129.588 Y123.73 E21.75329
G1 X127.036 Y124.001 E21.85145
G1 X123.906 Y124.431 E21.97229
G1 X123.152 Y124.506 E22.00127
G1 X122.475 Y124.543 E22.02721
G1 X122.267 Y124.549 E22.03517
G1 X121.669 Y124.548 E22.05804
G1 X121.026 Y124.521 E22.08265
G1 X120.467 Y124.477 E22.1041
G1 X119.855 Y124.406 E22.12767
G1 X119.641 Y124.376 E22.13593
G1 X119.114 Y124.288 E22.15637
G1 X118.62 Y124.189 E22.17564
G1 X118.38 Y124.136 E22.18504
G1 X117.83 Y123.998 E22.20673
G1 X117.315 Y123.849 E22.22724
