;FLAVOR:Marlin
;TIME:2272
;Filament used: 0.887595m
;Layer height: 0.09
;MINX:98.6
;MINY:84.238
;MINZ:0.23
;MAXX:151.408
;MAXY:125.75
;MAXZ:10.04
;Generated with Cura_SteamEngine 4.10.0
M82 ;absolute extrusion mode
G21 ; set units to millimeters
G90 ; use absolute positioning
M82 ; absolute extrusion mode
M104 S215.0 ; set extruder temp
M140 S60 ; set bed temp
M190 S60 ; wait for bed temp
M109 S215.0 ; wait for extruder temp
G28 W ; home all without mesh bed level
G80 ; mesh bed leveling
G92 E0.0 ; reset extruder distance position
G1 Y-3.0 F1000.0 ; go outside print area
G1 X60.0 E9.0 F1000.0 ; intro line
G1 X100.0 E21.5 F1000.0 ; intro line
G92 E0.0 ; reset extruder distance position
G92 E0
G92 E0
G1 F2100 E-0.8
;LAYER_COUNT:110
;LAYER:0
M107
G0 F3600 X102.522 Y88.794 Z0.23
;TYPE:SKIRT
G1 F2100 E0
G1 F1800 X102.773 Y88.534 E0.01382
G1 X103.465 Y87.876 E0.05035
G1 X104.188 Y87.281 E0.08616
G1 X105.266 Y86.514 E0.13677
G1 X105.741 Y86.221 E0.15811
G1 X105.797 Y86.188 E0.1606
G1 X106.736 Y85.693 E0.2012
G1 X107.036 Y85.552 E0.21388
G1 X107.92 Y85.181 E0.25055
G1 X108.106 Y85.112 E0.25814
G1 X108.927 Y84.842 E0.29119
G1 X109.157 Y84.776 E0.30035
G1 X109.924 Y84.585 E0.33058
G1 X110.538 Y84.464 E0.35452
G1 X110.757 Y84.427 E0.36301
G1 X111.695 Y84.309 E0.39917
G1 X111.825 Y84.298 E0.40416
G1 X112.345 Y84.266 E0.42409
G1 X112.96 Y84.246 E0.44762
G1 X113.681 Y84.238 E0.4752
G1 X136.309 Y84.238 E1.34071
G1 X137.061 Y84.247 E1.36947
G1 X137.807 Y84.276 E1.39803
G1 X139.127 Y84.415 E1.44879
G1 X139.587 Y84.491 E1.46663
G1 X140.927 Y84.797 E1.5192
G1 X141.187 Y84.873 E1.52956
G1 X142.511 Y85.35 E1.58339
G1 X142.879 Y85.509 E1.59872
G1 X144.127 Y86.142 E1.65225
G1 X144.461 Y86.338 E1.66706
G1 X145.602 Y87.104 E1.71962
G1 X145.846 Y87.29 E1.73136
G1 X146.861 Y88.163 E1.78257
G1 X147.137 Y88.43 E1.79726
G1 X148.082 Y89.464 E1.85083
G1 X148.312 Y89.749 E1.86484
G1 X149.1 Y90.853 E1.91672
G1 X149.305 Y91.18 E1.93148
G1 X149.97 Y92.401 E1.98466
G1 X150.088 Y92.653 E1.99531
G1 X150.599 Y93.942 E2.04834
G1 X150.742 Y94.379 E2.06593
G1 X151.078 Y95.649 E2.11618
G1 X151.134 Y95.924 E2.12691
G1 X151.328 Y97.306 E2.18029
G1 X151.358 Y97.688 E2.19495
G1 X151.391 Y98.388 E2.22175
G1 X151.408 Y99.467 E2.26303
G1 X151.407 Y106.259 E2.52282
G1 X151.399 Y106.853 E2.54554
G1 X151.371 Y107.59 E2.57375
G1 X151.336 Y108.11 E2.59368
G1 X151.23 Y108.957 E2.62633
G1 X151.177 Y109.282 E2.63893
G1 X150.874 Y110.626 E2.69162
G1 X150.759 Y111.022 E2.7074
G1 X150.454 Y111.927 E2.74392
G1 X150.259 Y112.404 E2.76364
G1 X150.142 Y112.672 E2.77482
G1 X149.58 Y113.787 E2.82258
G1 X149.367 Y114.158 E2.83894
G1 X148.641 Y115.269 E2.88971
G1 X148.26 Y115.77 E2.91378
G1 X148.204 Y115.84 E2.91721
G1 X147.614 Y116.52 E2.95164
G1 X147.369 Y116.781 E2.96534
G1 X146.355 Y117.737 E3.01864
G1 X146.061 Y117.982 E3.03328
G1 X144.919 Y118.819 E3.08743
G1 X144.693 Y118.964 E3.09771
G1 X144.204 Y119.261 E3.11959
G1 X143.415 Y119.713 E3.15437
G1 X136.712 Y123.393 E3.44685
G1 X135.945 Y123.8 E3.48006
G1 X135.466 Y124.04 E3.50055
G1 X135.182 Y124.174 E3.51256
G1 X134.667 Y124.402 E3.53411
G1 X134.096 Y124.631 E3.55764
G1 X133.886 Y124.71 E3.56622
G1 X133.254 Y124.927 E3.59178
G1 X132.755 Y125.078 E3.61172
G1 X132.544 Y125.138 E3.62011
G1 X131.903 Y125.301 E3.64541
G1 X131.3 Y125.43 E3.66899
G1 X131.082 Y125.472 E3.67749
G1 X130.478 Y125.572 E3.7009
G1 X129.703 Y125.666 E3.73076
G1 X129.035 Y125.719 E3.75639
G1 X128.401 Y125.745 E3.78066
G1 X128.086 Y125.75 E3.79271
G1 X127.57 Y125.746 E3.81245
G1 X127.064 Y125.725 E3.83182
G1 X126.838 Y125.711 E3.84048
G1 X126.208 Y125.655 E3.86468
G1 X125.726 Y125.595 E3.88325
G1 X123.312 Y125.255 E3.9765
G1 X120.804 Y124.975 E4.07302
G1 X118.302 Y124.767 E4.16905
G1 X115.827 Y124.631 E4.26386
G1 X112.765 Y124.558 E4.38101
G1 X111.645 Y124.55 E4.42386
G1 X110.716 Y124.53 E4.4594
G1 X109.557 Y124.445 E4.50385
G1 X109.349 Y124.419 E4.51186
G1 X108.407 Y124.261 E4.5484
G1 X107.482 Y124.025 E4.58491
G1 X106.185 Y123.547 E4.63778
G1 X105.868 Y123.408 E4.65102
G1 X105.01 Y122.989 E4.68754
G1 X104.191 Y122.499 E4.72405
G1 X103.217 Y121.783 E4.77029
G1 X103.067 Y121.66 E4.77771
G1 X102.355 Y121.024 E4.81422
G1 X101.491 Y120.087 E4.86297
G1 X101.352 Y119.918 E4.87134
G1 X100.777 Y119.155 E4.90789
G1 X100.268 Y118.348 E4.94438
G1 X99.918 Y117.689 E4.97292
G1 X99.824 Y117.497 E4.9811
G1 X99.441 Y116.622 E5.01763
G1 X99.03 Y115.351 E5.06872
G1 X98.984 Y115.174 E5.07572
G1 X98.782 Y114.241 E5.11223
G1 X98.66 Y113.294 E5.14875
G1 X98.618 Y112.461 E5.18066
G1 X98.601 Y111.201 E5.22885
G1 X98.6 Y110.968 E5.23777
G1 X98.606 Y110.043 E5.27315
G1 X98.6 Y109.813 E5.28195
G1 X98.61 Y108.352 E5.33783
G1 X98.608 Y108.087 E5.34797
G1 X98.609 Y99.131 E5.69053
G1 X98.617 Y98.617 E5.71019
G1 X98.648 Y97.815 E5.74089
G1 X98.791 Y96.452 E5.79331
G1 X98.846 Y96.121 E5.80614
G1 X99.153 Y94.782 E5.85869
G1 X99.27 Y94.383 E5.87459
G1 X99.744 Y93.069 E5.92802
G1 X99.849 Y92.826 E5.93815
G1 X100.469 Y91.601 E5.99066
G1 X100.713 Y91.183 E6.00917
G1 X101.488 Y90.024 E6.0625
G1 X101.654 Y89.806 E6.07298
G1 X102.522 Y88.794 E6.12398
G0 F3600 X102.81 Y89.072
G1 F1800 X103.061 Y88.812 E6.1378
G1 X104.088 Y87.874 E6.191
G1 X104.438 Y87.593 E6.20817
G1 X105.479 Y86.853 E6.25702
G1 X105.944 Y86.566 E6.27792
G1 X106 Y86.533 E6.28041
G1 X106.906 Y86.055 E6.31959
G1 X107.206 Y85.914 E6.33227
G1 X108.059 Y85.556 E6.36765
G1 X108.245 Y85.487 E6.37524
G1 X109.037 Y85.227 E6.40712
G1 X109.267 Y85.161 E6.41628
G1 X110.007 Y84.976 E6.44545
G1 X110.605 Y84.859 E6.46876
G1 X110.824 Y84.822 E6.47725
G1 X111.729 Y84.707 E6.51215
G1 X111.859 Y84.696 E6.51714
G1 X112.361 Y84.665 E6.53637
G1 X112.964 Y84.646 E6.55945
G1 X113.681 Y84.638 E6.58688
G1 X136.309 Y84.638 E7.45238
G1 X137.056 Y84.647 E7.48095
G1 X137.788 Y84.675 E7.50897
G1 X139.062 Y84.81 E7.55797
G1 X139.522 Y84.886 E7.57581
G1 X140.815 Y85.181 E7.62653
G1 X141.075 Y85.257 E7.6369
G1 X142.352 Y85.717 E7.68881
G1 X142.72 Y85.876 E7.70414
G1 X143.924 Y86.487 E7.75579
G1 X144.258 Y86.683 E7.7706
G1 X145.36 Y87.422 E7.82135
G1 X145.604 Y87.608 E7.83309
G1 X146.583 Y88.45 E7.88248
G1 X146.859 Y88.717 E7.89716
G1 X147.771 Y89.715 E7.94888
G1 X148.001 Y90 E7.96288
G1 X148.761 Y91.065 E8.01293
G1 X148.966 Y91.392 E8.02769
G1 X149.608 Y92.57 E8.079
G1 X149.726 Y92.822 E8.08965
G1 X150.218 Y94.066 E8.14081
G1 X150.361 Y94.503 E8.1584
G1 X150.686 Y95.729 E8.20692
G1 X150.742 Y96.004 E8.21765
G1 X150.929 Y97.338 E8.26917
G1 X150.959 Y97.72 E8.28383
G1 X150.991 Y98.395 E8.30968
G1 X151.008 Y99.467 E8.35068
G1 X151.007 Y106.253 E8.61024
G1 X150.999 Y106.847 E8.63297
G1 X150.972 Y107.572 E8.66071
G1 X150.938 Y108.075 E8.68
G1 X150.836 Y108.892 E8.71149
G1 X150.783 Y109.217 E8.72409
G1 X150.49 Y110.515 E8.77498
G1 X150.375 Y110.911 E8.79075
G1 X150.075 Y111.799 E8.82661
G1 X149.775 Y112.512 E8.85619
G1 X149.234 Y113.588 E8.90226
G1 X149.021 Y113.959 E8.91862
G1 X148.319 Y115.031 E8.96763
G1 X147.948 Y115.52 E8.99111
G1 X147.892 Y115.59 E8.99454
G1 X147.322 Y116.246 E9.02778
G1 X147.077 Y116.507 E9.04147
G1 X146.099 Y117.429 E9.09288
G1 X145.805 Y117.674 E9.10752
G1 X144.703 Y118.482 E9.15979
G1 X144.477 Y118.627 E9.17006
G1 X144.005 Y118.914 E9.19119
G1 X143.216 Y119.366 E9.22597
G1 X143.041 Y119.464 E9.23364
G1 X136.524 Y123.04 E9.51797
G1 X135.757 Y123.447 E9.55118
G1 X135.295 Y123.678 E9.57094
G1 X135.011 Y123.812 E9.58295
G1 X134.514 Y124.032 E9.60374
G1 X133.955 Y124.257 E9.62679
G1 X133.745 Y124.336 E9.63537
G1 X133.135 Y124.545 E9.66003
G1 X132.646 Y124.694 E9.67958
G1 X132.435 Y124.754 E9.68798
G1 X131.816 Y124.91 E9.71239
G1 X131.224 Y125.037 E9.73555
G1 X131.006 Y125.079 E9.74404
G1 X130.423 Y125.175 E9.76664
G1 X129.659 Y125.268 E9.79608
G1 X129.015 Y125.32 E9.82079
G1 X128.395 Y125.345 E9.84453
G1 X127.582 Y125.346 E9.87562
G1 X126.863 Y125.312 E9.90315
G1 X126.255 Y125.257 E9.9265
G1 X125.782 Y125.199 E9.94473
G1 X123.341 Y124.856 E10.03902
G1 X120.849 Y124.577 E10.13493
G1 X118.321 Y124.366 E10.23196
G1 X115.858 Y124.231 E10.32631
G1 X112.778 Y124.158 E10.44415
G1 X111.648 Y124.15 E10.48737
G1 X110.725 Y124.13 E10.52268
G1 X109.607 Y124.048 E10.56556
G1 X109.399 Y124.022 E10.57358
G1 X108.474 Y123.866 E10.60946
G1 X107.566 Y123.632 E10.64532
G1 X106.346 Y123.181 E10.69507
G1 X106.029 Y123.042 E10.70831
G1 X105.187 Y122.629 E10.74418
G1 X104.383 Y122.146 E10.78006
G1 X103.471 Y121.474 E10.82339
G1 X103.321 Y121.351 E10.83081
G1 X102.622 Y120.726 E10.86667
G1 X101.8 Y119.832 E10.91313
G1 X101.661 Y119.663 E10.9215
G1 X101.097 Y118.914 E10.95736
G1 X100.599 Y118.12 E10.99321
G1 X100.277 Y117.513 E11.01949
G1 X100.183 Y117.321 E11.02767
G1 X99.807 Y116.462 E11.06353
G1 X99.417 Y115.251 E11.11219
G1 X99.371 Y115.074 E11.11919
G1 X99.174 Y114.157 E11.15506
G1 X99.055 Y113.227 E11.19093
G1 X99.018 Y112.455 E11.22049
G1 X99.001 Y111.195 E11.26869
G1 X99 Y110.971 E11.27725
G1 X99.007 Y109.94 E11.31669
G1 X99 Y109.816 E11.32144
G1 X99.01 Y108.353 E11.3774
G1 X99.008 Y108.085 E11.38765
G1 X99.009 Y99.137 E11.7299
G1 X99.017 Y98.623 E11.74957
G1 X99.048 Y97.833 E11.77981
G1 X99.186 Y96.518 E11.83038
G1 X99.241 Y96.187 E11.84321
G1 X99.536 Y94.895 E11.8939
G1 X99.653 Y94.496 E11.90981
G1 X100.111 Y93.228 E11.96138
G1 X100.216 Y92.985 E11.9715
G1 X100.814 Y91.803 E12.02217
G1 X101.058 Y91.385 E12.04068
G1 X101.806 Y90.266 E12.09216
G1 X101.972 Y90.048 E12.10264
G1 X102.81 Y89.072 E12.15185
G0 F3600 X103.098 Y89.35
G1 F1800 X103.349 Y89.09 E12.16567
G1 X104.339 Y88.186 E12.21695
G1 X104.689 Y87.905 E12.23412
G1 X105.691 Y87.192 E12.28115
G1 X106.147 Y86.911 E12.30164
G1 X106.203 Y86.878 E12.30413
G1 X107.076 Y86.417 E12.34189
G1 X107.376 Y86.276 E12.35457
G1 X108.198 Y85.931 E12.38867
G1 X108.384 Y85.862 E12.39625
G1 X109.147 Y85.611 E12.42698
G1 X109.377 Y85.545 E12.43613
G1 X110.09 Y85.367 E12.46424
G1 X110.671 Y85.253 E12.48688
G1 X110.89 Y85.216 E12.49538
G1 X111.762 Y85.106 E12.529
G1 X112.376 Y85.065 E12.55253
G1 X112.969 Y85.046 E12.57523
G1 X113.681 Y85.038 E12.60246
G1 X136.309 Y85.038 E13.46796
G1 X137.05 Y85.047 E13.49631
G1 X137.769 Y85.075 E13.52383
G1 X138.997 Y85.205 E13.57106
G1 X139.457 Y85.281 E13.5889
G1 X140.703 Y85.565 E13.63778
G1 X140.963 Y85.641 E13.64814
G1 X142.193 Y86.084 E13.69814
G1 X142.561 Y86.243 E13.71348
G1 X143.722 Y86.832 E13.76327
G1 X144.056 Y87.028 E13.77808
G1 X145.117 Y87.74 E13.82696
G1 X145.361 Y87.926 E13.83869
G1 X146.305 Y88.737 E13.8863
G1 X146.581 Y89.004 E13.90098
G1 X147.46 Y89.966 E13.95083
G1 X147.69 Y90.251 E13.96483
G1 X148.422 Y91.278 E14.01307
G1 X148.627 Y91.605 E14.02783
G1 X149.246 Y92.74 E14.07728
G1 X149.364 Y92.992 E14.08793
G1 X149.838 Y94.19 E14.13721
G1 X149.981 Y94.627 E14.15479
G1 X150.294 Y95.809 E14.20156
G1 X150.35 Y96.084 E14.2123
G1 X150.53 Y97.369 E14.26193
G1 X150.56 Y97.751 E14.27658
G1 X150.591 Y98.402 E14.30151
G1 X150.608 Y99.467 E14.34225
G1 X150.607 Y106.248 E14.60162
G1 X150.599 Y106.842 E14.62434
G1 X150.572 Y107.553 E14.65156
G1 X150.539 Y108.04 E14.67023
G1 X150.441 Y108.828 E14.7006
G1 X150.388 Y109.153 E14.71319
G1 X150.105 Y110.403 E14.76221
G1 X149.99 Y110.799 E14.77799
G1 X149.526 Y112.084 E14.83024
G1 X149.409 Y112.352 E14.84143
G1 X148.887 Y113.389 E14.88583
G1 X148.674 Y113.76 E14.9022
G1 X147.998 Y114.793 E14.94942
G1 X147.635 Y115.27 E14.97234
G1 X147.579 Y115.34 E14.97577
G1 X147.03 Y115.973 E15.00782
G1 X146.785 Y116.234 E15.02151
G1 X145.843 Y117.122 E15.07103
G1 X145.549 Y117.367 E15.08567
G1 X144.487 Y118.146 E15.13605
G1 X144.261 Y118.291 E15.14632
G1 X143.806 Y118.567 E15.16667
G1 X143.017 Y119.019 E15.20145
G1 X142.849 Y119.113 E15.20881
G1 X136.337 Y122.686 E15.49292
G1 X135.57 Y123.093 E15.52613
G1 X134.84 Y123.45 E15.55722
G1 X134.361 Y123.662 E15.57725
G1 X133.814 Y123.882 E15.5998
G1 X133.604 Y123.961 E15.60838
G1 X133.017 Y124.163 E15.63213
G1 X132.536 Y124.309 E15.65136
G1 X132.325 Y124.369 E15.65975
G1 X131.729 Y124.52 E15.68326
G1 X131.148 Y124.645 E15.70599
G1 X130.93 Y124.687 E15.71449
G1 X130.369 Y124.779 E15.73623
G1 X129.615 Y124.87 E15.76528
G1 X128.994 Y124.92 E15.78911
G1 X128.388 Y124.945 E15.81231
G1 X127.593 Y124.946 E15.84272
G1 X126.888 Y124.913 E15.86971
G1 X126.302 Y124.86 E15.89222
G1 X125.838 Y124.803 E15.9101
G1 X123.374 Y124.456 E16.00527
G1 X120.89 Y124.179 E16.10087
G1 X118.375 Y123.969 E16.1974
G1 X115.858 Y123.831 E16.29382
G1 X112.79 Y123.759 E16.4112
G1 X111.651 Y123.75 E16.45477
G1 X110.734 Y123.73 E16.48985
G1 X109.656 Y123.651 E16.5312
G1 X109.448 Y123.625 E16.53921
G1 X108.541 Y123.471 E16.5744
G1 X107.65 Y123.239 E16.60962
G1 X106.506 Y122.815 E16.65628
G1 X106.189 Y122.676 E16.66952
G1 X105.363 Y122.27 E16.70473
G1 X104.575 Y121.794 E16.73994
G1 X103.725 Y121.165 E16.78039
G1 X103.575 Y121.042 E16.78781
G1 X102.889 Y120.428 E16.82302
G1 X102.109 Y119.578 E16.86715
G1 X101.97 Y119.409 E16.87552
G1 X101.417 Y118.674 E16.9107
G1 X100.929 Y117.893 E16.94592
G1 X100.637 Y117.337 E16.96994
G1 X100.543 Y117.145 E16.97812
G1 X100.174 Y116.301 E17.01335
G1 X99.804 Y115.15 E17.0596
G1 X99.758 Y114.973 E17.06659
G1 X99.565 Y114.073 E17.1018
G1 X99.451 Y113.159 E17.13703
G1 X99.418 Y112.45 E17.16418
G1 X99.401 Y111.19 E17.21237
G1 X99.4 Y110.974 E17.22064
G1 X99.407 Y109.975 E17.25885
G1 X99.4 Y109.819 E17.26482
G1 X99.41 Y108.353 E17.3209
G1 X99.408 Y108.082 E17.33126
G1 X99.409 Y99.143 E17.67317
G1 X99.417 Y98.629 E17.69283
G1 X99.447 Y97.851 E17.72261
G1 X99.58 Y96.583 E17.77138
G1 X99.635 Y96.252 E17.78421
G1 X99.92 Y95.007 E17.83306
G1 X100.037 Y94.608 E17.84897
G1 X100.479 Y93.386 E17.89867
G1 X100.584 Y93.143 E17.9088
G1 X101.16 Y92.004 E17.95762
G1 X101.404 Y91.586 E17.97613
G1 X102.125 Y90.508 E18.02574
G1 X102.291 Y90.29 E18.03622
G1 X103.098 Y89.35 E18.0836
G0 F3600 X103.386 Y89.628
G1 F1800 X103.637 Y89.368 E18.09743
G1 X104.589 Y88.498 E18.14675
G1 X104.939 Y88.217 E18.16392
G1 X105.904 Y87.531 E18.20921
G1 X106.351 Y87.255 E18.2293
G1 X106.407 Y87.222 E18.23179
G1 X107.246 Y86.779 E18.26808
G1 X107.546 Y86.638 E18.28076
G1 X108.337 Y86.306 E18.31357
G1 X108.523 Y86.237 E18.32116
G1 X109.258 Y85.996 E18.35074
G1 X109.488 Y85.93 E18.35989
G1 X110.174 Y85.758 E18.38695
G1 X110.738 Y85.648 E18.40893
G1 X110.957 Y85.611 E18.41742
G1 X111.796 Y85.504 E18.44977
G1 X112.391 Y85.465 E18.47258
G1 X112.974 Y85.446 E18.49489
G1 X113.681 Y85.438 E18.52193
G1 X136.309 Y85.438 E19.38744
G1 X137.045 Y85.447 E19.41559
G1 X137.75 Y85.474 E19.44257
G1 X138.932 Y85.599 E19.48804
G1 X139.392 Y85.675 E19.50587
G1 X140.591 Y85.949 E19.55291
G1 X140.851 Y86.025 E19.56327
G1 X142.035 Y86.452 E19.61142
G1 X142.403 Y86.611 E19.62675
G1 X143.519 Y87.177 E19.67461
G1 X143.853 Y87.373 E19.68942
G1 X144.875 Y88.058 E19.73648
G1 X145.119 Y88.244 E19.74822
G1 X146.027 Y89.025 E19.79403
G1 X146.303 Y89.292 E19.80872
G1 X147.149 Y90.217 E19.85666
G1 X147.379 Y90.502 E19.87067
G1 X148.083 Y91.49 E19.91707
G1 X148.288 Y91.817 E19.93184
G1 X148.883 Y92.91 E19.97943
G1 X149.001 Y93.162 E19.99008
G1 X149.458 Y94.315 E20.03752
G1 X149.601 Y94.752 E20.0551
G1 X149.902 Y95.889 E20.10009
G1 X149.958 Y96.164 E20.11083
G1 X150.132 Y97.4 E20.15857
G1 X150.162 Y97.782 E20.17322
G1 X150.192 Y98.408 E20.1972
G1 X150.207 Y99.294 E20.23109
G1 X150.208 Y106.105 E20.4916
G1 X150.199 Y106.836 E20.51957
G1 X150.173 Y107.535 E20.54632
G1 X150.141 Y108.006 E20.56438
G1 X150.046 Y108.764 E20.5936
G1 X149.993 Y109.089 E20.60619
G1 X149.721 Y110.292 E20.65337
G1 X149.606 Y110.688 E20.66914
G1 X149.159 Y111.924 E20.71941
G1 X149.042 Y112.192 E20.7306
G1 X148.54 Y113.19 E20.77333
G1 X148.327 Y113.561 E20.78969
G1 X147.676 Y114.555 E20.83514
G1 X147.323 Y115.02 E20.85747
G1 X147.267 Y115.09 E20.8609
G1 X146.739 Y115.699 E20.89173
G1 X146.494 Y115.96 E20.90542
G1 X145.587 Y116.815 E20.9531
G1 X145.293 Y117.06 E20.96773
G1 X144.271 Y117.809 E21.0162
G1 X144.045 Y117.954 E21.02647
G1 X143.607 Y118.22 E21.04607
G1 X142.656 Y118.763 E21.08796
G1 X136.276 Y122.265 E21.36633
G1 X135.382 Y122.74 E21.40505
G1 X134.67 Y123.089 E21.43538
G1 X134.209 Y123.292 E21.45465
G1 X133.673 Y123.508 E21.47675
G1 X133.463 Y123.587 E21.48533
G1 X132.898 Y123.781 E21.50818
