;FLAVOR:Marlin
;TIME:8869
;Filament used: 6.33674m
;Layer height: 0.15
;MINX:57.839
;MINY:22.236
;MINZ:0.25
;MAXX:113.339
;MAXY:80.236
;MAXZ:56.05
;Generated with Cura_SteamEngine 4.10.0
M82 ;absolute extrusion mode
G21 ; set units to millimeters
G90 ; use absolute positioning
M82 ; absolute extrusion mode
M104 S200 ; set extruder temp
M140 S60 ; set bed temp
M190 S60 ; wait for bed temp
M109 S200 ; wait for extruder temp
G28 W ; home all without mesh bed level
G80 ; mesh bed leveling
G92 E0.0 ; reset extruder distance position
G1 Y-3.0 F1000.0 ; go outside print area
G1 X60.0 E9.0 F1000.0 ; intro line
G1 X100.0 E21.5 F1000.0 ; intro line
G92 E0.0 ; reset extruder distance position
G92 E0
G92 E0
G1 F2100 E-0.8
;LAYER_COUNT:373
;LAYER:0
M107
G0 F1200 X58.767 Y26.933 Z0.25
;TYPE:SKIRT
G1 F2100 E0
G1 F600 X59.026 Y26.431 E0.02348
G1 X59.225 Y26.135 E0.03831
G1 X59.657 Y25.551 E0.06851
G1 X60.003 Y25.109 E0.09185
G1 X60.383 Y24.69 E0.11537
G1 X60.659 Y24.449 E0.1306
G1 X61.215 Y24.007 E0.16013
G1 X61.689 Y23.652 E0.18475
G1 X62.165 Y23.349 E0.20821
G1 X62.477 Y23.197 E0.22264
G1 X63.288 Y22.846 E0.25938
G1 X63.672 Y22.693 E0.27657
G1 X64.211 Y22.521 E0.30009
G1 X64.556 Y22.454 E0.3147
G1 X65.252 Y22.349 E0.34396
G1 X65.385 Y22.331 E0.34954
G1 X65.882 Y22.273 E0.37035
G1 X66.432 Y22.24 E0.39325
G1 X66.799 Y22.236 E0.40851
G1 X104.189 Y22.236 E1.96301
G1 X104.887 Y22.246 E1.99203
G1 X105.438 Y22.285 E2.015
G1 X105.917 Y22.344 E2.03506
G1 X106.555 Y22.437 E2.06187
G1 X107.107 Y22.558 E2.08536
G1 X107.448 Y22.675 E2.10035
G1 X108.217 Y22.98 E2.13474
G1 X108.637 Y23.16 E2.15374
G1 X109.139 Y23.419 E2.17723
G1 X109.442 Y23.623 E2.19241
G1 X110.107 Y24.117 E2.22685
G1 X110.466 Y24.399 E2.24583
G1 X110.885 Y24.779 E2.26935
G1 X111.126 Y25.056 E2.28462
G1 X111.568 Y25.612 E2.31415
G1 X111.925 Y26.089 E2.33892
G1 X112.23 Y26.565 E2.36242
G1 X112.384 Y26.881 E2.37703
G1 X112.662 Y27.521 E2.40604
G1 X112.88 Y28.064 E2.43037
G1 X113.053 Y28.602 E2.45387
G1 X113.121 Y28.952 E2.46869
G1 X113.229 Y29.669 E2.49884
G1 X113.3 Y30.253 E2.52329
G1 X113.336 Y30.867 E2.54887
G1 X113.338 Y30.999 E2.55435
G1 X113.339 Y75.555 E4.40678
G1 X113.329 Y76.282 E4.43701
G1 X113.281 Y76.845 E4.4605
G1 X113.154 Y77.396 E4.48401
G1 X112.951 Y77.924 E4.50752
G1 X112.676 Y78.418 E4.53103
G1 X112.334 Y78.868 E4.55453
G1 X111.931 Y79.265 E4.57805
G1 X111.477 Y79.601 E4.60153
G1 X110.98 Y79.87 E4.62502
G1 X110.45 Y80.067 E4.64853
G1 X109.897 Y80.186 E4.67205
G1 X109.121 Y80.234 E4.70437
G1 X109.009 Y80.236 E4.70903
G1 X62.494 Y80.236 E6.6429
G1 X61.796 Y80.227 E6.67192
G1 X61.233 Y80.179 E6.69541
G1 X60.682 Y80.053 E6.71891
G1 X60.154 Y79.851 E6.74242
G1 X59.66 Y79.576 E6.76592
G1 X59.21 Y79.234 E6.78942
G1 X58.812 Y78.832 E6.81294
G1 X58.476 Y78.378 E6.83642
G1 X58.206 Y77.881 E6.85994
G1 X58.009 Y77.351 E6.88344
G1 X57.889 Y76.799 E6.90693
G1 X57.84 Y76.002 E6.94013
G1 X57.839 Y31.386 E8.79505
G1 X57.849 Y30.689 E8.82403
G1 X57.889 Y30.129 E8.84737
G1 X57.946 Y29.669 E8.86664
G1 X58.038 Y29.031 E8.89344
G1 X58.158 Y28.479 E8.91692
G1 X58.275 Y28.136 E8.93199
G1 X58.537 Y27.471 E8.96171
G1 X58.767 Y26.933 E8.98603
G0 F1200 X59.134 Y27.091
G1 F600 X59.382 Y26.616 E9.00831
G1 X59.547 Y26.373 E9.02052
G1 X60.042 Y25.706 E9.05506
G1 X60.317 Y25.356 E9.07356
G1 X60.679 Y24.96 E9.09587
G1 X60.908 Y24.762 E9.10845
G1 X61.464 Y24.32 E9.13798
G1 X61.927 Y23.974 E9.16201
G1 X62.38 Y23.687 E9.18431
G1 X62.637 Y23.563 E9.19617
G1 X63.334 Y23.26 E9.22777
G1 X63.82 Y23.065 E9.24954
G1 X64.332 Y22.904 E9.27186
G1 X64.616 Y22.849 E9.28388
G1 X65.312 Y22.744 E9.31315
G1 X65.432 Y22.728 E9.31818
G1 X65.929 Y22.67 E9.33898
G1 X66.446 Y22.64 E9.36051
G1 X66.802 Y22.636 E9.37531
G1 X104.184 Y22.636 E10.92948
G1 X104.882 Y22.646 E10.9585
G1 X105.401 Y22.684 E10.98013
G1 X105.859 Y22.74 E10.99932
G1 X106.497 Y22.833 E11.02612
G1 X107.021 Y22.949 E11.04844
G1 X107.301 Y23.047 E11.06077
G1 X108.059 Y23.348 E11.09468
G1 X108.479 Y23.528 E11.11367
G1 X108.955 Y23.775 E11.13597
G1 X109.204 Y23.944 E11.14848
G1 X109.86 Y24.432 E11.18247
G1 X110.219 Y24.714 E11.20145
G1 X110.615 Y25.076 E11.22376
G1 X110.813 Y25.305 E11.23635
G1 X111.255 Y25.861 E11.26588
G1 X111.604 Y26.327 E11.29008
G1 X111.891 Y26.78 E11.31238
G1 X112.017 Y27.041 E11.32443
G1 X112.336 Y27.779 E11.35785
G1 X112.509 Y28.212 E11.37724
G1 X112.67 Y28.724 E11.39955
G1 X112.726 Y29.012 E11.41175
G1 X112.834 Y29.729 E11.4419
G1 X112.903 Y30.3 E11.46581
G1 X112.936 Y30.88 E11.48996
G1 X112.938 Y30.999 E11.49491
G1 X112.939 Y75.55 E13.34712
G1 X112.929 Y76.277 E13.37735
G1 X112.881 Y76.811 E13.39964
G1 X112.755 Y77.332 E13.42193
G1 X112.553 Y77.829 E13.44423
G1 X112.279 Y78.29 E13.46653
G1 X111.94 Y78.705 E13.48881
G1 X111.543 Y79.066 E13.51111
G1 X111.097 Y79.363 E13.53339
G1 X110.611 Y79.591 E13.55571
G1 X110.097 Y79.744 E13.57801
G1 X109.43 Y79.826 E13.60595
G1 X109.009 Y79.836 E13.62345
G1 X62.5 Y79.836 E15.55707
G1 X61.802 Y79.827 E15.5861
G1 X61.267 Y79.78 E15.60842
G1 X60.746 Y79.654 E15.63071
G1 X60.249 Y79.452 E15.65301
G1 X59.788 Y79.179 E15.67529
G1 X59.372 Y78.84 E15.6976
G1 X59.011 Y78.444 E15.71988
G1 X58.713 Y77.998 E15.74218
G1 X58.485 Y77.512 E15.7645
G1 X58.332 Y76.998 E15.78679
G1 X58.249 Y76.324 E15.81503
G1 X58.239 Y75.894 E15.83291
G1 X58.239 Y31.391 E17.68313
G1 X58.249 Y30.694 E17.71211
G1 X58.287 Y30.166 E17.73412
G1 X58.342 Y29.726 E17.75255
G1 X58.434 Y29.088 E17.77935
G1 X58.55 Y28.565 E17.80162
G1 X58.648 Y28.282 E17.81408
G1 X58.952 Y27.514 E17.84842
G1 X59.134 Y27.091 E17.86756
G0 F1200 X59.502 Y27.249
G1 F600 X59.868 Y26.611 E17.89814
G1 X60.3 Y26.027 E17.92834
G1 X60.632 Y25.603 E17.95073
G1 X61.157 Y25.075 E17.98169
G1 X61.797 Y24.568 E18.01563
G1 X62.165 Y24.295 E18.03468
G1 X62.796 Y23.93 E18.06499
G1 X63.493 Y23.627 E18.09659
G1 X63.969 Y23.436 E18.11791
G1 X64.676 Y23.245 E18.14836
G1 X65.372 Y23.14 E18.17762
G1 X65.975 Y23.068 E18.20287
G1 X66.548 Y23.038 E18.22672
G1 X66.805 Y23.036 E18.23741
G1 X104.178 Y23.036 E19.7912
G1 X104.876 Y23.046 E19.82022
G1 X105.458 Y23.092 E19.84449
G1 X105.802 Y23.135 E19.85891
G1 X106.44 Y23.228 E19.88571
G1 X107.154 Y23.419 E19.91644
G1 X107.902 Y23.716 E19.9499
G1 X108.322 Y23.896 E19.9689
G1 X108.966 Y24.266 E19.99978
G1 X109.613 Y24.747 E20.03329
G1 X109.972 Y25.029 E20.05227
G1 X110.5 Y25.554 E20.08323
G1 X110.942 Y26.11 E20.11276
G1 X111.283 Y26.566 E20.13643
G1 X111.65 Y27.2 E20.16689
G1 X111.965 Y27.928 E20.19987
G1 X112.138 Y28.361 E20.21925
G1 X112.33 Y29.071 E20.24983
G1 X112.438 Y29.788 E20.27998
G1 X112.505 Y30.346 E20.30334
G1 X112.536 Y30.893 E20.32612
G1 X112.538 Y30.999 E20.33053
G1 X112.539 Y75.544 E22.1825
G1 X112.529 Y76.271 E22.21272
G1 X112.482 Y76.774 E22.23373
G1 X112.356 Y77.264 E22.25476
G1 X112.155 Y77.728 E22.27578
G1 X111.883 Y78.154 E22.2968
G1 X111.548 Y78.533 E22.31783
G1 X111.157 Y78.853 E22.33883
G1 X110.721 Y79.108 E22.35983
G1 X110.25 Y79.292 E22.38086
G1 X109.755 Y79.398 E22.4019
G1 X109.099 Y79.435 E22.42922
G1 X62.505 Y79.436 E24.36637
G1 X61.807 Y79.427 E24.39539
G1 X61.303 Y79.38 E24.41644
G1 X60.813 Y79.255 E24.43746
G1 X60.349 Y79.054 E24.45849
G1 X59.923 Y78.783 E24.47948
G1 X59.544 Y78.448 E24.50051
G1 X59.223 Y78.057 E24.52154
G1 X58.968 Y77.621 E24.54254
G1 X58.784 Y77.15 E24.56356
G1 X58.677 Y76.656 E24.58458
G1 X58.64 Y75.98 E24.61272
G1 X58.639 Y31.397 E26.46627
G1 X58.649 Y30.7 E26.49525
G1 X58.698 Y30.092 E26.52061
G1 X58.738 Y29.783 E26.53356
G1 X58.83 Y29.145 E26.56036
G1 X59.02 Y28.429 E26.59116
G1 X59.282 Y27.764 E26.62088
G1 X59.502 Y27.249 E26.64416
G1 F2100 E25.84416
;MESH:208d4388-ba9e-4dab-8ce5-0af7d63e8269.stl
G0 F1200 X61.797 Y28.308
G0 X62.983 Y28.798
G0 X68.569 Y36.007
G0 X69.243 Y36.529
G0 X69.281 Y36.437
;TYPE:WALL-INNER
G1 F2100 E26.64416
G1 F600 X70.089 Y36.598 E26.67841
G1 X70.897 Y36.437 E26.71267
G1 X71.582 Y35.979 E26.74693
G1 X72.04 Y35.294 E26.78118
G1 X72.201 Y34.486 E26.81544
G1 X72.04 Y33.678 E26.84969
G1 X71.582 Y32.993 E26.88395
G1 X70.897 Y32.536 E26.91818
G1 X70.089 Y32.374 E26.95244
G1 X69.281 Y32.536 E26.98671
G1 X68.597 Y32.993 E27.02091
G1 X68.138 Y33.678 E27.05519
G1 X67.977 Y34.486 E27.08944
G1 X68.138 Y35.294 E27.12369
G1 X68.597 Y35.979 E27.15798
G1 X69.281 Y36.437 E27.1922
G0 F1200 X69.243 Y36.529
G0 X73.819 Y52.965
G0 X74.47 Y54.864
G0 X75.425 Y56.626
G0 X76.656 Y58.21
G0 X78.133 Y59.567
G0 X79.81 Y60.664
G0 X81.464 Y61.389
G0 X83.581 Y62.021
G0 X83.597 Y61.923
G1 F600 X85.589 Y62.088 E27.2753
G1 X87.581 Y61.923 E27.3584
G1 X89.518 Y61.433 E27.44147
G1 X91.35 Y60.63 E27.52463
G1 X93.023 Y59.536 E27.60774
G1 X94.493 Y58.183 E27.6908
G1 X95.721 Y56.606 E27.7739
G1 X96.673 Y54.848 E27.85701
G1 X97.321 Y52.956 E27.94016
G1 X97.65 Y50.986 E28.0232
G1 X97.65 Y48.987 E28.10631
G1 X97.321 Y47.016 E28.18938
G1 X96.673 Y45.125 E28.27249
G1 X95.721 Y43.366 E28.35565
G1 X94.493 Y41.79 E28.43871
G1 X93.023 Y40.436 E28.5218
G1 X91.35 Y39.342 E28.60491
G1 X89.518 Y38.539 E28.68807
G1 X87.581 Y38.049 E28.77114
G1 X85.589 Y37.884 E28.85424
G1 X83.597 Y38.049 E28.93734
G1 X81.66 Y38.539 E29.02041
G1 X79.829 Y39.343 E29.10355
G1 X78.156 Y40.436 E29.18663
G1 X76.685 Y41.79 E29.26975
G1 X75.458 Y43.366 E29.35279
G1 X74.506 Y45.125 E29.43594
G1 X73.857 Y47.016 E29.51906
G1 X73.529 Y48.987 E29.60214
G1 X73.529 Y50.986 E29.68524
G1 X73.857 Y52.956 E29.76827
G1 X74.506 Y54.848 E29.85143
G1 X75.458 Y56.605 E29.93452
G1 X76.685 Y58.183 E30.01762
G1 X78.157 Y59.536 E30.10074
G1 X79.829 Y60.629 E30.18379
G1 X81.66 Y61.433 E30.26693
G1 X83.597 Y61.923 E30.35
G0 F1200 X83.581 Y62.021
G0 X70.912 Y67.473
G0 X69.243 Y67.529
G0 X69.281 Y67.437
G1 F600 X70.089 Y67.598 E30.38425
G1 X70.897 Y67.437 E30.41851
G1 X71.582 Y66.979 E30.45276
G1 X72.04 Y66.294 E30.48702
G1 X72.201 Y65.486 E30.52128
G1 X72.04 Y64.678 E30.55553
G1 X71.582 Y63.993 E30.58979
G1 X70.897 Y63.536 E30.62402
G1 X70.089 Y63.374 E30.65828
G1 X69.281 Y63.536 E30.69254
G1 X68.597 Y63.993 E30.72675
G1 X68.138 Y64.678 E30.76103
G1 X67.977 Y65.486 E30.79528
G1 X68.138 Y66.294 E30.82953
G1 X68.597 Y66.979 E30.86381
G1 X69.281 Y67.437 E30.89804
G0 F1200 X69.243 Y67.529
G0 X100.243 Y67.529
G0 X100.281 Y67.437
G1 F600 X101.089 Y67.598 E30.93229
G1 X101.897 Y67.437 E30.96654
G1 X102.582 Y66.979 E31.0008
G1 X103.04 Y66.294 E31.03506
G1 X103.201 Y65.486 E31.06931
G1 X103.04 Y64.678 E31.10357
G1 X102.582 Y63.993 E31.13783
G1 X101.897 Y63.536 E31.17206
G1 X101.089 Y63.374 E31.20632
G1 X100.281 Y63.536 E31.24058
G1 X99.597 Y63.993 E31.27478
G1 X99.138 Y64.678 E31.30906
G1 X98.977 Y65.486 E31.34332
G1 X99.138 Y66.294 E31.37757
G1 X99.597 Y66.979 E31.41185
G1 X100.281 Y67.437 E31.44608
G0 F1200 X100.243 Y67.529
G0 X108.669 Y75.566
G0 X108.739 Y75.636
G1 F600 X62.439 Y75.636 E33.37101
G1 X62.439 Y30.776 E35.23607
G1 X62.577 Y29.729 E35.27997
G1 X62.966 Y28.789 E35.32227
G1 X63.585 Y27.982 E35.36455
G1 X64.392 Y27.363 E35.40684
G1 X65.332 Y26.974 E35.44913
G1 X66.379 Y26.836 E35.49304
G1 X104.799 Y26.836 E37.09036
G1 X105.846 Y26.974 E37.13426
G1 X106.786 Y27.363 E37.17656
G1 X107.593 Y27.982 E37.21884
G1 X108.211 Y28.788 E37.26107
G1 X108.602 Y29.731 E37.30351
G1 X108.739 Y30.776 E37.34733
G1 X108.739 Y75.636 E39.21239
G0 F1200 X108.669 Y75.566
G0 X100.243 Y36.529
G0 X100.281 Y36.437
G1 F600 X101.089 Y36.598 E39.24664
G1 X101.897 Y36.437 E39.2809
G1 X102.582 Y35.979 E39.31515
G1 X103.04 Y35.294 E39.34941
G1 X103.201 Y34.486 E39.38367
G1 X103.04 Y33.678 E39.41792
G1 X102.582 Y32.993 E39.45218
G1 X101.897 Y32.536 E39.48641
G1 X101.089 Y32.374 E39.52067
G1 X100.281 Y32.536 E39.55493
G1 X99.597 Y32.993 E39.58913
G1 X99.138 Y33.678 E39.62342
G1 X98.977 Y34.486 E39.65767
G1 X99.138 Y35.294 E39.69192
G1 X99.597 Y35.979 E39.7262
G1 X100.281 Y36.437 E39.76043
G0 F1200 X100.437 Y36.06
;TYPE:WALL-OUTER
G1 F600 X101.089 Y36.19 E39.78807
G1 X101.741 Y36.06 E39.81571
G1 X102.294 Y35.691 E39.84335
G1 X102.663 Y35.138 E39.87099
G1 X102.793 Y34.486 E39.89863
G1 X102.663 Y33.834 E39.92627
G1 X102.294 Y33.282 E39.95387
G1 X101.741 Y32.913 E39.98151
G1 X101.089 Y32.782 E40.00916
G1 X100.437 Y32.913 E40.03681
G1 X99.885 Y33.282 E40.06442
G1 X99.515 Y33.834 E40.09204
G1 X99.385 Y34.486 E40.11968
G1 X99.515 Y35.138 E40.14733
G1 X99.885 Y35.691 E40.17499
G1 X100.437 Y36.06 E40.20259
G0 F1200 X100.633 Y36.099
G0 X100.535 Y36.589
G0 X97.359 Y52.965
G0 X96.709 Y54.864
G0 X95.754 Y56.627
G0 X94.522 Y58.21
G0 X93.047 Y59.567
G0 X91.369 Y60.665
G0 X89.53 Y61.47
G0 X87.587 Y61.962
G0 X85.789 Y62.111
G0 X83.621 Y62.024
G0 X83.663 Y61.527
G1 F600 X85.589 Y61.687 E40.28294
G1 X87.515 Y61.527 E40.36329
G1 X89.388 Y61.053 E40.44362
G1 X91.159 Y60.277 E40.524
G1 X92.776 Y59.219 E40.60434
G1 X94.198 Y57.911 E40.68467
G1 X95.385 Y56.386 E40.76501
G1 X96.305 Y54.687 E40.84534
G1 X96.932 Y52.858 E40.92573
G1 X97.25 Y50.953 E41.00602
G1 X97.25 Y49.02 E41.08639
G1 X96.932 Y47.114 E41.16673
G1 X96.305 Y45.286 E41.24707
G1 X95.385 Y43.586 E41.32744
G1 X94.198 Y42.062 E41.40775
G1 X92.776 Y40.753 E41.4881
G1 X91.159 Y39.695 E41.56844
G1 X89.388 Y38.919 E41.64883
G1 X87.515 Y38.445 E41.72915
G1 X85.589 Y38.285 E41.8095
G1 X83.663 Y38.445 E41.88985
G1 X81.79 Y38.919 E41.97018
G1 X80.02 Y39.696 E42.05054
G1 X78.403 Y40.753 E42.13086
G1 X76.98 Y42.062 E42.21125
G1 X75.794 Y43.586 E42.29153
G1 X74.874 Y45.286 E42.3719
G1 X74.246 Y47.114 E42.45225
G1 X73.929 Y49.02 E42.53259
G1 X73.929 Y50.953 E42.61295
G1 X74.246 Y52.858 E42.69324
G1 X74.874 Y54.687 E42.77364
G1 X75.794 Y56.386 E42.85397
G1 X76.98 Y57.911 E42.93428
G1 X78.403 Y59.219 E43.01464
G1 X80.02 Y60.276 E43.09496
G1 X81.79 Y61.053 E43.17532
G1 X83.663 Y61.527 E43.25565
G0 F1200 X83.862 Y61.543
G0 X83.82 Y62.041
G0 X70.912 Y67.473
G0 X69.339 Y67.55
G0 X69.437 Y67.06
G1 F600 X70.089 Y67.19 E43.28329
G1 X70.741 Y67.06 E43.31093
G1 X71.294 Y66.691 E43.33857
G1 X71.663 Y66.138 E43.36621
G1 X71.793 Y65.486 E43.39385
G1 X71.663 Y64.834 E43.42149
G1 X71.294 Y64.282 E43.4491
G1 X70.741 Y63.913 E43.47673
G1 X70.089 Y63.782 E43.50438
G1 X69.437 Y63.913 E43.53203
G1 X68.885 Y64.282 E43.55964
G1 X68.515 Y64.834 E43.58727
G1 X68.385 Y65.486 E43.61491
G1 X68.515 Y66.138 E43.64255
G1 X68.885 Y66.691 E43.67021
G1 X69.437 Y67.06 E43.69781
G0 F1200 X69.633 Y67.099
G0 X69.535 Y67.589
G0 X100.339 Y67.55
G0 X100.437 Y67.06
G1 F600 X101.089 Y67.19 E43.72545
G1 X101.741 Y67.06 E43.7531
G1 X102.294 Y66.691 E43.78073
G1 X102.663 Y66.138 E43.80837
G1 X102.793 Y65.486 E43.83601
G1 X102.663 Y64.834 E43.86366
G1 X102.294 Y64.282 E43.89126
G1 X101.741 Y63.913 E43.9189
G1 X101.089 Y63.782 E43.94655
G1 X100.437 Y63.913 E43.9742
G1 X99.885 Y64.282 E44.0018
G1 X99.515 Y64.834 E44.02943
G1 X99.385 Y65.486 E44.05707
G1 X99.515 Y66.138 E44.08471
G1 X99.885 Y66.691 E44.11237
G1 X100.437 Y67.06 E44.13998
G0 F1200 X100.633 Y67.099
G0 X100.535 Y67.589
G0 X108.669 Y75.566
G0 X109.139 Y76.036
G1 F600 X62.039 Y76.036 E46.09817
G1 X62.039 Y30.747 E47.98107
G1 X62.187 Y29.625 E48.02812
G1 X62.616 Y28.588 E48.07478
G1 X63.3 Y27.697 E48.12148
G1 X64.191 Y27.013 E48.16818
G1 X65.228 Y26.584 E48.21483
G1 X66.35 Y26.436 E48.26188
G1 X104.828 Y26.436 E49.86161
G1 X105.951 Y26.584 E49.90871
G1 X106.987 Y27.013 E49.95533
G1 X107.878 Y27.697 E50.00203
G1 X108.561 Y28.587 E50.04867
G1 X108.992 Y29.627 E50.09547
G1 X109.139 Y30.747 E50.14243
G1 X109.139 Y76.036 E52.02533
G0 F1200 X108.939 Y76.036
G0 X108.669 Y75.566
G0 X79.81 Y60.664
G0 X78.133 Y59.567
G0 X76.656 Y58.21
G0 X75.425 Y56.626
G0 X74.47 Y54.864
G0 X73.944 Y53.326
G0 X69.339 Y36.55
G0 X69.437 Y36.06
G1 F600 X70.089 Y36.19 E52.05297
G1 X70.741 Y36.06 E52.08061
G1 X71.294 Y35.691 E52.10825
G1 X71.663 Y35.138 E52.13589
G1 X71.793 Y34.486 E52.16353
G1 X71.663 Y33.834 E52.19117
G1 X71.294 Y33.282 E52.21878
G1 X70.741 Y32.913 E52.24642
G1 X70.089 Y32.782 E52.27407
G1 X69.437 Y32.913 E52.30172
G1 X68.885 Y33.282 E52.32932
G1 X68.515 Y33.834 E52.35695
G1 X68.385 Y34.486 E52.38459
G1 X68.515 Y35.138 E52.41223
G1 X68.885 Y35.691 E52.43989
G1 X69.437 Y36.06 E52.4675
G0 F1200 X69.633 Y36.099
G0 X69.129 Y36.804
;TYPE:SKIN
G1 F600 X70.089 Y36.996 E52.5082
G1 X71.049 Y36.804 E52.5489
G1 X71.863 Y36.26 E52.58961
